%
(SA_Card_Holder)
(T3  D=0.25 CR=0. - ZMIN=-0.7087 - flat end mill)
(T8  D=0.125 CR=0.0625 - ZMIN=-0.7445 - ball end mill)
G90 G54 G64 G50 G17 G40 G80 G94 G91.1 G49
G20 (Inch)
G30

N10(Adaptive1)
T3 G43 H3 M6
S5000 M3 M8
G54
G0 X-0.1569 Y-0.9198
G0 Z0.6
G0 Z0.2
G0 Z-0.3437
G1 Z-0.3687 F40.
G1 X-0.1566 Y-0.9199 Z-0.3726
G1 X-0.1558 Y-0.9202 Z-0.3764
G1 X-0.1543 Y-0.9207 Z-0.3801
G1 X-0.1524 Y-0.9214 Z-0.3834
G1 X-0.15 Y-0.9223 Z-0.3864
G1 X-0.1472 Y-0.9233 Z-0.3889
G1 X-0.1441 Y-0.9245 Z-0.391
G1 X-0.1407 Y-0.9257 Z-0.3925
G1 X-0.1371 Y-0.927 Z-0.3934
G1 X-0.1334 Y-0.9284 Z-0.3937
G1 X-0.1314 Y-0.9288
G1 X-0.1292 Y-0.9287
G1 X-0.1272 Y-0.928
G1 X-0.1255 Y-0.9268
G1 X-0.1241 Y-0.9252
G1 X-0.1174 Y-0.915
G1 X-0.109 Y-0.9045
G1 X-0.1006 Y-0.8956
G1 X-0.0959 Y-0.8908
G1 X-0.0893 Y-0.8827
G1 X-0.0821 Y-0.8724
G1 X-0.0743 Y-0.8591
G1 X-0.0661 Y-0.842
G1 X-0.0574 Y-0.8195
G1 X-0.0484 Y-0.7889
G1 X-0.0408 Y-0.7527
G1 X-0.0356 Y-0.716
G1 X-0.032 Y-0.6792
G1 X-0.0295 Y-0.6423
G1 X-0.0277 Y-0.6053
G1 X-0.0257 Y-0.5313
G1 X-0.0245 Y-0.4368
G1 X-0.0255 Y-0.4256
G1 X-0.0286 Y-0.4148
G1 X-0.0336 Y-0.4047
G1 X-0.0405 Y-0.3957
G1 X-0.0489 Y-0.3882
G1 X-0.0586 Y-0.3825
G3 X-0.0934 Y-0.4029 I-0.01 J-0.0229
G1 X-0.1413 Y-0.8738
G3 X-0.1006 Y-0.8956 I0.0249 J-0.0025
G1 X-0.0922 Y-0.8882
G1 X-0.0838 Y-0.8818
G1 X-0.0754 Y-0.8762
G1 X-0.067 Y-0.8715
G1 X-0.0543 Y-0.8656
G1 X-0.0488 Y-0.8632
G1 X-0.0421 Y-0.8596
G1 X-0.0352 Y-0.8551
G1 X-0.0273 Y-0.849
G1 X-0.0188 Y-0.8412
G1 X-0.0102 Y-0.8321
G1 X-0.0007 Y-0.8201
G1 X0.0087 Y-0.8061
G1 X0.0189 Y-0.7879
G1 X0.0291 Y-0.7657
G1 X0.0397 Y-0.7369
G1 X0.0495 Y-0.7013
G1 X0.0568 Y-0.665
G1 X0.062 Y-0.6283
G1 X0.0659 Y-0.5915
G1 X0.0687 Y-0.5546
G1 X0.0708 Y-0.5177
G1 Y-0.4885
G1 X0.0689 Y-0.466
G1 X0.0659 Y-0.4475
G1 X0.0639 Y-0.4393
G1 X0.0595 Y-0.4273
G1 X0.0525 Y-0.4165
G1 X0.0434 Y-0.4074
G1 X0.0324 Y-0.4006
G1 X0.0203 Y-0.3964
G1 X0.0075 Y-0.3949
G1 X0.0035
G3 X-0.0204 Y-0.4161 I0.0008 J-0.025
G1 X-0.0861 Y-0.8378
G3 X-0.0543 Y-0.8656 I0.0247 J-0.0038
G1 X-0.0334 Y-0.8593
G1 X-0.0241 Y-0.8572
G1 X-0.0082 Y-0.8553
G1 X-0.0068
G1 X-0.0014 Y-0.8549
G1 X0.0051 Y-0.8536
G1 X0.0117 Y-0.8518
G1 X0.0194 Y-0.8491
G1 X0.0277 Y-0.8453
G1 X0.0363 Y-0.8405
G1 X0.0462 Y-0.8339
G1 X0.0558 Y-0.8263
G1 X0.0664 Y-0.8165
G1 X0.0777 Y-0.8043
G1 X0.0888 Y-0.79
G1 X0.1006 Y-0.772
G1 X0.1125 Y-0.7502
G1 X0.1245 Y-0.7235
G1 X0.1367 Y-0.6892
G1 X0.1462 Y-0.6534
G1 X0.1535 Y-0.6172
G1 X0.1588 Y-0.5805
G1 X0.1619 Y-0.5437
G1 X0.1622 Y-0.513
G1 X0.1605 Y-0.4882
G1 X0.1575 Y-0.4682
G1 X0.1535 Y-0.4513
G1 X0.1484 Y-0.4354
G1 X0.1466 Y-0.4311
G1 X0.1412 Y-0.421
G1 X0.134 Y-0.4121
G1 X0.1251 Y-0.4049
G1 X0.115 Y-0.3995
G1 X0.1041 Y-0.3961
G1 X0.0927 Y-0.395
G1 X0.0075 Y-0.3949
G3 X-0.0167 Y-0.419 I0.0008 J-0.025
G1 X-0.0315 Y-0.8294
G3 X-0.0068 Y-0.8553 I0.025 J-0.0009
G1 X0.059 Y-0.855
G1 X0.0651 Y-0.8547
G1 X0.0722 Y-0.8538
G1 X0.0805 Y-0.852
G1 X0.0891 Y-0.8494
G1 X0.0986 Y-0.8457
G1 X0.1089 Y-0.8407
G1 X0.1196 Y-0.8344
G1 X0.1314 Y-0.8261
G1 X0.143 Y-0.8165
G1 X0.1562 Y-0.8036
G1 X0.1687 Y-0.7893
G1 X0.1824 Y-0.7708
G1 X0.1956 Y-0.7497
G1 X0.209 Y-0.7235
G1 X0.2222 Y-0.692
G1 X0.2337 Y-0.6569
G1 X0.2424 Y-0.6209
G1 X0.2484 Y-0.5845
G1 X0.2512 Y-0.5503
G1 Y-0.5186
G1 X0.2492 Y-0.4926
G1 X0.2456 Y-0.4704
G1 X0.2412 Y-0.4521
G1 X0.236 Y-0.4364
G1 X0.2335 Y-0.4306
G1 X0.2281 Y-0.4206
G1 X0.2208 Y-0.4119
G1 X0.212 Y-0.4047
G1 X0.202 Y-0.3994
G1 X0.1911 Y-0.3961
G1 X0.1798 Y-0.395
G1 X0.0927
G3 X0.0686 Y-0.4179 I0.0009 J-0.025
G1 X0.035 Y-0.828
G3 X0.059 Y-0.855 I0.0249 J-0.002
G1 X0.1347
G1 X0.1447 Y-0.8545
G1 X0.1526 Y-0.8535
G1 X0.1618 Y-0.8515
G1 X0.1711 Y-0.8487
G1 X0.1819 Y-0.8445
G1 X0.1927 Y-0.8393
G1 X0.2048 Y-0.8321
G1 X0.2172 Y-0.8234
G1 X0.2305 Y-0.8124
G1 X0.2442 Y-0.7991
G1 X0.2584 Y-0.7827
G1 X0.2725 Y-0.7637
G1 X0.2871 Y-0.7402
G1 X0.3004 Y-0.7145
G1 X0.3127 Y-0.6851
G1 X0.3233 Y-0.6524
G1 X0.3316 Y-0.6179
G1 X0.337 Y-0.5834
G1 X0.3395 Y-0.55
G1 X0.3393 Y-0.5186
G1 X0.3371 Y-0.4923
G1 X0.3333 Y-0.4699
G1 X0.3286 Y-0.4514
G1 X0.3233 Y-0.4356
G1 X0.3209 Y-0.4302
G1 X0.3155 Y-0.4203
G1 X0.3082 Y-0.4117
G1 X0.2994 Y-0.4046
G1 X0.2894 Y-0.3993
G1 X0.2786 Y-0.3961
G1 X0.2674 Y-0.395
G1 X0.1798
G3 X0.1558 Y-0.4173 I0.0009 J-0.025
G1 X0.1107 Y-0.8273
G3 X0.1347 Y-0.855 I0.0248 J-0.0027
G1 X0.2187
G1 X0.2293 Y-0.8545
G1 X0.2375 Y-0.8534
G1 X0.2469 Y-0.8514
G1 X0.257 Y-0.8484
G1 X0.2678 Y-0.8441
G1 X0.2799 Y-0.8383
G1 X0.292 Y-0.8311
G1 X0.3055 Y-0.8217
G1 X0.3188 Y-0.8106
G1 X0.3332 Y-0.7966
G1 X0.3474 Y-0.7803
G1 X0.3617 Y-0.761
G1 X0.3762 Y-0.7376
G1 X0.3892 Y-0.7125
G1 X0.4012 Y-0.6838
G1 X0.4116 Y-0.652
G1 X0.4197 Y-0.6182
G1 X0.425 Y-0.5842
G1 X0.4275 Y-0.5511
G1 X0.4273 Y-0.5197
G1 X0.425 Y-0.4928
G1 X0.4212 Y-0.4702
G1 X0.4165 Y-0.4517
G1 X0.4111 Y-0.4358
G1 X0.4087 Y-0.4302
G1 X0.4032 Y-0.4203
G1 X0.396 Y-0.4117
G1 X0.3872 Y-0.4046
G1 X0.3772 Y-0.3993
G1 X0.3664 Y-0.3961
G1 X0.3551 Y-0.395
G1 X0.2674
G3 X0.2434 Y-0.417 I0.0009 J-0.025
G1 X0.1947 Y-0.8271
G3 X0.2187 Y-0.855 I0.0248 J-0.0029
G1 X0.3073
G1 X0.3161 Y-0.8546
G1 X0.3247 Y-0.8534
G1 X0.3341 Y-0.8514
G1 X0.3446 Y-0.8483
G1 X0.3554 Y-0.8441
G1 X0.3677 Y-0.8381
G1 X0.38 Y-0.8309
G1 X0.3936 Y-0.8213
G1 X0.407 Y-0.8102
G1 X0.4214 Y-0.7961
G1 X0.4357 Y-0.7797
G1 X0.4499 Y-0.7605
G1 X0.4644 Y-0.7372
G1 X0.4774 Y-0.7122
G1 X0.4892 Y-0.6837
G1 X0.4995 Y-0.6522
G1 X0.5076 Y-0.6186
G1 X0.5129 Y-0.5847
G1 X0.5154 Y-0.5515
G1 X0.5152 Y-0.5201
G1 X0.5129 Y-0.4931
G1 X0.509 Y-0.4704
G1 X0.5044 Y-0.4519
G1 X0.4989 Y-0.4359
G1 X0.4965 Y-0.4302
G1 X0.4911 Y-0.4203
G1 X0.4838 Y-0.4117
G1 X0.475 Y-0.4046
G1 X0.465 Y-0.3993
G1 X0.4542 Y-0.3961
G1 X0.443 Y-0.395
G1 X0.3551
G3 X0.3312 Y-0.4171 I0.0009 J-0.025
G1 X0.2834 Y-0.8271
G3 X0.3073 Y-0.855 I0.0248 J-0.0029
G1 X0.3951
G1 X0.4039 Y-0.8546
G1 X0.4126 Y-0.8534
G1 X0.422 Y-0.8514
G1 X0.4325 Y-0.8482
G1 X0.4434 Y-0.844
G1 X0.4557 Y-0.838
G1 X0.468 Y-0.8308
G1 X0.4817 Y-0.8212
G1 X0.4951 Y-0.8101
G1 X0.5095 Y-0.796
G1 X0.5238 Y-0.7796
G1 X0.5379 Y-0.7605
G1 X0.5524 Y-0.7373
G1 X0.5653 Y-0.7122
G1 X0.5772 Y-0.6839
G1 X0.5874 Y-0.6524
G1 X0.5955 Y-0.6189
G1 X0.6008 Y-0.5849
G1 X0.6033 Y-0.5517
G1 X0.6031 Y-0.5203
G1 X0.6007 Y-0.4932
G1 X0.5969 Y-0.4705
G1 X0.5922 Y-0.4519
G1 X0.5868 Y-0.4359
G1 X0.5844 Y-0.4302
G1 X0.5789 Y-0.4203
G1 X0.5716 Y-0.4117
G1 X0.5629 Y-0.4046
G1 X0.5529 Y-0.3993
G1 X0.542 Y-0.3961
G1 X0.5308 Y-0.395
G1 X0.443
G3 X0.419 Y-0.4171 I0.0009 J-0.025
G1 X0.3712 Y-0.8271
G3 X0.3951 Y-0.855 I0.0248 J-0.0029
G1 X0.4838
G1 X0.4918 Y-0.8546
G1 X0.5005 Y-0.8535
G1 X0.5099 Y-0.8514
G1 X0.5205 Y-0.8483
G1 X0.5313 Y-0.8441
G1 X0.5437 Y-0.8381
G1 X0.5559 Y-0.8309
G1 X0.5697 Y-0.8212
G1 X0.583 Y-0.8101
G1 X0.5974 Y-0.7961
G1 X0.6117 Y-0.7797
G1 X0.6259 Y-0.7606
G1 X0.6403 Y-0.7374
G1 X0.6532 Y-0.7123
G1 X0.6651 Y-0.684
G1 X0.6753 Y-0.6526
G1 X0.6834 Y-0.6191
G1 X0.6887 Y-0.5851
G1 X0.6911 Y-0.5519
G1 X0.691 Y-0.5204
G1 X0.6886 Y-0.4933
G1 X0.6848 Y-0.4705
G1 X0.6801 Y-0.452
G1 X0.6747 Y-0.4359
G1 X0.6722 Y-0.4302
G1 X0.6668 Y-0.4203
G1 X0.6595 Y-0.4117
G1 X0.6507 Y-0.4046
G1 X0.6407 Y-0.3993
G1 X0.6299 Y-0.3961
G1 X0.6187 Y-0.395
G1 X0.5308
G3 X0.5068 Y-0.4171 I0.0009 J-0.025
G1 X0.4598 Y-0.8272
G3 X0.4838 Y-0.855 I0.0248 J-0.0028
G1 X0.5716
G1 X0.5798 Y-0.8546
G1 X0.5885 Y-0.8534
G1 X0.5979 Y-0.8514
G1 X0.6085 Y-0.8483
G1 X0.6193 Y-0.8441
G1 X0.6317 Y-0.8381
G1 X0.6439 Y-0.8309
G1 X0.6576 Y-0.8212
G1 X0.671 Y-0.8101
G1 X0.6854 Y-0.7961
G1 X0.6997 Y-0.7797
G1 X0.7138 Y-0.7606
G1 X0.7282 Y-0.7374
G1 X0.7411 Y-0.7124
G1 X0.7529 Y-0.6841
G1 X0.7632 Y-0.6527
G1 X0.7712 Y-0.6192
G1 X0.7766 Y-0.5852
G1 X0.779 Y-0.552
G1 X0.7789 Y-0.5205
G1 X0.7765 Y-0.4933
G1 X0.7727 Y-0.4705
G1 X0.768 Y-0.452
G1 X0.7626 Y-0.4359
G1 X0.7601 Y-0.4302
G1 X0.7546 Y-0.4203
G1 X0.7474 Y-0.4117
G1 X0.7386 Y-0.4046
G1 X0.7286 Y-0.3993
G1 X0.7178 Y-0.3961
G1 X0.7065 Y-0.395
G1 X0.6187
G3 X0.5947 Y-0.4171 I0.0009 J-0.025
G1 X0.5476 Y-0.8272
G3 X0.5716 Y-0.855 I0.0248 J-0.0029
G1 X0.6556
G1 X0.668 Y-0.8544
G1 X0.6766 Y-0.8532
G1 X0.686 Y-0.8512
G1 X0.6966 Y-0.8481
G1 X0.7074 Y-0.8439
G1 X0.7197 Y-0.8379
G1 X0.7319 Y-0.8307
G1 X0.7456 Y-0.8211
G1 X0.759 Y-0.81
G1 X0.7733 Y-0.796
G1 X0.7876 Y-0.7796
G1 X0.8017 Y-0.7605
G1 X0.8161 Y-0.7374
G1 X0.829 Y-0.7124
G1 X0.8408 Y-0.6841
G1 X0.8511 Y-0.6527
G1 X0.8591 Y-0.6192
G1 X0.8644 Y-0.5852
G1 X0.8669 Y-0.552
G1 X0.8667 Y-0.5205
G1 X0.8644 Y-0.4934
G1 X0.8606 Y-0.4705
G1 X0.8559 Y-0.452
G1 X0.8505 Y-0.4359
G1 X0.848 Y-0.4302
G1 X0.8425 Y-0.4203
G1 X0.8353 Y-0.4117
G1 X0.8265 Y-0.4046
G1 X0.8165 Y-0.3993
G1 X0.8057 Y-0.3961
G1 X0.7944 Y-0.395
G1 X0.7065
G3 X0.6826 Y-0.4169 I0.0009 J-0.025
G1 X0.6317 Y-0.8269
G3 X0.6556 Y-0.855 I0.0248 J-0.0031
G1 X0.748
G1 X0.7556 Y-0.8546
G1 X0.7643 Y-0.8535
G1 X0.7737 Y-0.8515
G1 X0.7843 Y-0.8483
G1 X0.7951 Y-0.8441
G1 X0.8075 Y-0.8381
G1 X0.8197 Y-0.8309
G1 X0.8334 Y-0.8213
G1 X0.8468 Y-0.8102
G1 X0.8612 Y-0.7961
G1 X0.8755 Y-0.7798
G1 X0.8896 Y-0.7607
G1 X0.904 Y-0.7375
G1 X0.9169 Y-0.7125
G1 X0.9287 Y-0.6842
G1 X0.939 Y-0.6528
G1 X0.947 Y-0.6193
G1 X0.9523 Y-0.5853
G1 X0.9548 Y-0.552
G1 X0.9546 Y-0.5205
G1 X0.9523 Y-0.4934
G1 X0.9485 Y-0.4706
G1 X0.9438 Y-0.452
G1 X0.9384 Y-0.436
G1 X0.9359 Y-0.4302
G1 X0.9304 Y-0.4203
G1 X0.9232 Y-0.4117
G1 X0.9144 Y-0.4046
G1 X0.9044 Y-0.3993
G1 X0.8936 Y-0.3961
G1 X0.8823 Y-0.395
G1 X0.7944
G3 X0.7705 Y-0.4172 I0.0009 J-0.025
G1 X0.724 Y-0.8272
G3 X0.748 Y-0.855 I0.0248 J-0.0028
G1 X0.832
G1 X0.8438 Y-0.8544
G1 X0.8524 Y-0.8533
G1 X0.8618 Y-0.8513
G1 X0.8724 Y-0.8481
G1 X0.8832 Y-0.8439
G1 X0.8955 Y-0.8379
G1 X0.9078 Y-0.8307
G1 X0.9214 Y-0.8211
G1 X0.9348 Y-0.81
G1 X0.9491 Y-0.796
G1 X0.9634 Y-0.7797
G1 X0.9775 Y-0.7606
G1 X0.9919 Y-0.7375
G1 X1.0048 Y-0.7124
G1 X1.0166 Y-0.6842
G1 X1.0269 Y-0.6528
G1 X1.0349 Y-0.6193
G1 X1.0402 Y-0.5853
G1 X1.0427 Y-0.552
G1 X1.0425 Y-0.5205
G1 X1.0402 Y-0.4934
G1 X1.0364 Y-0.4706
G1 X1.0317 Y-0.452
G1 X1.0262 Y-0.436
G1 X1.0238 Y-0.4302
G1 X1.0183 Y-0.4203
G1 X1.011 Y-0.4117
G1 X1.0023 Y-0.4046
G1 X0.9923 Y-0.3993
G1 X0.9814 Y-0.3961
G1 X0.9702 Y-0.395
G1 X0.8823
G3 X0.8584 Y-0.4169 I0.0009 J-0.025
G1 X0.8081 Y-0.827
G3 X0.832 Y-0.855 I0.0248 J-0.003
G1 X0.9245
G1 X0.9315 Y-0.8546
G1 X0.9401 Y-0.8535
G1 X0.9495 Y-0.8515
G1 X0.9601 Y-0.8483
G1 X0.9709 Y-0.8441
G1 X0.9833 Y-0.8381
G1 X0.9955 Y-0.8309
G1 X1.0092 Y-0.8213
G1 X1.0226 Y-0.8102
G1 X1.037 Y-0.7962
G1 X1.0513 Y-0.7798
G1 X1.0654 Y-0.7607
G1 X1.0798 Y-0.7376
G1 X1.0927 Y-0.7125
G1 X1.1045 Y-0.6843
G1 X1.1148 Y-0.6528
G1 X1.1228 Y-0.6193
G1 X1.1281 Y-0.5853
G1 X1.1306 Y-0.5521
G1 X1.1304 Y-0.5205
G1 X1.1281 Y-0.4934
G1 X1.1243 Y-0.4706
G1 X1.1196 Y-0.452
G1 X1.1141 Y-0.436
G1 X1.1117 Y-0.4302
G1 X1.1062 Y-0.4203
G1 X1.0989 Y-0.4117
G1 X1.0901 Y-0.4046
G1 X1.0802 Y-0.3993
G1 X1.0693 Y-0.3961
G1 X1.0581 Y-0.395
G1 X0.9702
G3 X0.9462 Y-0.4172 I0.0009 J-0.025
G1 X0.9005 Y-0.8272
G3 X0.9245 Y-0.855 I0.0248 J-0.0028
G1 X1.0085
G1 X1.0196 Y-0.8544
G1 X1.0282 Y-0.8533
G1 X1.0376 Y-0.8513
G1 X1.0482 Y-0.8481
G1 X1.059 Y-0.8439
G1 X1.0713 Y-0.8379
G1 X1.0836 Y-0.8308
G1 X1.0972 Y-0.8211
G1 X1.1106 Y-0.8101
G1 X1.1249 Y-0.7961
G1 X1.1392 Y-0.7797
G1 X1.1533 Y-0.7606
G1 X1.1677 Y-0.7375
G1 X1.1806 Y-0.7125
G1 X1.1924 Y-0.6842
G1 X1.2027 Y-0.6528
G1 X1.2107 Y-0.6193
G1 X1.216 Y-0.5853
G1 X1.2185 Y-0.5521
G1 X1.2183 Y-0.5206
G1 X1.216 Y-0.4934
G1 X1.2122 Y-0.4706
G1 X1.2075 Y-0.452
G1 X1.202 Y-0.436
G1 X1.1996 Y-0.4302
G1 X1.1941 Y-0.4203
G1 X1.1868 Y-0.4117
G1 X1.178 Y-0.4046
G1 X1.1681 Y-0.3993
G1 X1.1572 Y-0.3961
G1 X1.146 Y-0.395
G1 X1.0581
G3 X1.0342 Y-0.417 I0.0009 J-0.025
G1 X0.9845 Y-0.827
G3 X1.0085 Y-0.855 I0.0248 J-0.003
G1 X1.1009
G1 X1.1072 Y-0.8547
G1 X1.1159 Y-0.8535
G1 X1.1253 Y-0.8515
G1 X1.1359 Y-0.8484
G1 X1.1467 Y-0.8441
G1 X1.1591 Y-0.8381
G1 X1.1713 Y-0.8309
G1 X1.185 Y-0.8213
G1 X1.1984 Y-0.8102
G1 X1.2128 Y-0.7962
G1 X1.2271 Y-0.7798
G1 X1.2412 Y-0.7607
G1 X1.2556 Y-0.7376
G1 X1.2685 Y-0.7126
G1 X1.2803 Y-0.6843
G1 X1.2906 Y-0.6529
G1 X1.2986 Y-0.6194
G1 X1.3039 Y-0.5854
G1 X1.3064 Y-0.5521
G1 X1.3062 Y-0.5206
G1 X1.3039 Y-0.4934
G1 X1.3 Y-0.4706
G1 X1.2954 Y-0.452
G1 X1.2899 Y-0.436
G1 X1.2874 Y-0.4302
G1 X1.282 Y-0.4203
G1 X1.2747 Y-0.4117
G1 X1.2659 Y-0.4046
G1 X1.2559 Y-0.3993
G1 X1.2451 Y-0.3961
G1 X1.2339 Y-0.395
G1 X1.146
G3 X1.122 Y-0.4173 I0.0009 J-0.025
G1 X1.0769 Y-0.8273
G3 X1.1009 Y-0.855 I0.0249 J-0.0027
G1 X1.1849
G1 X1.1954 Y-0.8545
G1 X1.204 Y-0.8533
G1 X1.2134 Y-0.8513
G1 X1.224 Y-0.8482
G1 X1.2348 Y-0.844
G1 X1.2471 Y-0.838
G1 X1.2593 Y-0.8308
G1 X1.273 Y-0.8212
G1 X1.2864 Y-0.8101
G1 X1.3007 Y-0.7961
G1 X1.315 Y-0.7797
G1 X1.3291 Y-0.7607
G1 X1.3435 Y-0.7375
G1 X1.3564 Y-0.7125
G1 X1.3682 Y-0.6843
G1 X1.3785 Y-0.6529
G1 X1.3865 Y-0.6194
G1 X1.3918 Y-0.5853
G1 X1.3943 Y-0.5521
G1 X1.3941 Y-0.5206
G1 X1.3918 Y-0.4934
G1 X1.3879 Y-0.4706
G1 X1.3833 Y-0.452
G1 X1.3778 Y-0.436
G1 X1.3753 Y-0.4302
G1 X1.3699 Y-0.4203
G1 X1.3626 Y-0.4117
G1 X1.3538 Y-0.4046
G1 X1.3438 Y-0.3993
G1 X1.333 Y-0.3961
G1 X1.3218 Y-0.395
G1 X1.2339
G3 X1.2099 Y-0.417 I0.0009 J-0.025
G1 X1.161 Y-0.8271
G3 X1.1849 Y-0.855 I0.0248 J-0.003
G1 X1.2773
G1 X1.283 Y-0.8547
G1 X1.2917 Y-0.8536
G1 X1.3011 Y-0.8516
G1 X1.3117 Y-0.8484
G1 X1.3225 Y-0.8442
G1 X1.3349 Y-0.8382
G1 X1.3471 Y-0.831
G1 X1.3608 Y-0.8214
G1 X1.3742 Y-0.8103
G1 X1.3886 Y-0.7962
G1 X1.4028 Y-0.7799
G1 X1.417 Y-0.7608
G1 X1.4314 Y-0.7376
G1 X1.4443 Y-0.7126
G1 X1.4561 Y-0.6843
G1 X1.4664 Y-0.6529
G1 X1.4744 Y-0.6194
G1 X1.4797 Y-0.5854
G1 X1.4822 Y-0.5521
G1 X1.482 Y-0.5206
G1 X1.4797 Y-0.4934
G1 X1.4758 Y-0.4706
G1 X1.4712 Y-0.452
G1 X1.4657 Y-0.436
G1 X1.4632 Y-0.4302
G1 X1.4578 Y-0.4203
G1 X1.4505 Y-0.4117
G1 X1.4417 Y-0.4046
G1 X1.4317 Y-0.3993
G1 X1.4209 Y-0.3961
G1 X1.4097 Y-0.395
G1 X1.3218
G3 X1.2978 Y-0.4173 I0.0009 J-0.025
G1 X1.2534 Y-0.8273
G3 X1.2773 Y-0.855 I0.0249 J-0.0027
G1 X1.3614
G1 X1.3712 Y-0.8545
G1 X1.3798 Y-0.8534
G1 X1.3892 Y-0.8514
G1 X1.3998 Y-0.8482
G1 X1.4106 Y-0.844
G1 X1.4229 Y-0.838
G1 X1.4351 Y-0.8308
G1 X1.4488 Y-0.8212
G1 X1.4622 Y-0.8101
G1 X1.4765 Y-0.7961
G1 X1.4908 Y-0.7798
G1 X1.5049 Y-0.7607
G1 X1.5193 Y-0.7376
G1 X1.5322 Y-0.7125
G1 X1.544 Y-0.6843
G1 X1.5543 Y-0.6529
G1 X1.5623 Y-0.6194
G1 X1.5676 Y-0.5854
G1 X1.5701 Y-0.5521
G1 X1.5699 Y-0.5206
G1 X1.5676 Y-0.4934
G1 X1.5637 Y-0.4706
G1 X1.5591 Y-0.452
G1 X1.5536 Y-0.436
G1 X1.5511 Y-0.4302
G1 X1.5457 Y-0.4203
G1 X1.5384 Y-0.4117
G1 X1.5296 Y-0.4046
G1 X1.5196 Y-0.3993
G1 X1.5088 Y-0.3961
G1 X1.4976 Y-0.395
G1 X1.4097
G3 X1.3857 Y-0.4171 I0.0009 J-0.025
G1 X1.3374 Y-0.8271
G3 X1.3614 Y-0.855 I0.0248 J-0.0029
G1 X1.4538
G1 X1.4592 Y-0.8547
G1 X1.4679 Y-0.8536
G1 X1.4773 Y-0.8515
G1 X1.4879 Y-0.8483
G1 X1.4988 Y-0.844
G1 X1.5112 Y-0.838
G1 X1.5235 Y-0.8307
G1 X1.5371 Y-0.821
G1 X1.5506 Y-0.8098
G1 X1.5649 Y-0.7957
G1 X1.5793 Y-0.7791
G1 X1.5933 Y-0.76
G1 X1.6077 Y-0.7367
G1 X1.6207 Y-0.7114
G1 X1.6324 Y-0.6831
G1 X1.6425 Y-0.6516
G1 X1.6505 Y-0.6181
G1 X1.6557 Y-0.584
G1 X1.658 Y-0.5507
G1 X1.6578 Y-0.5192
G1 X1.6554 Y-0.4925
G1 X1.6515 Y-0.4698
G1 X1.6467 Y-0.4513
G1 X1.6413 Y-0.4354
G1 X1.639 Y-0.43
G1 X1.6335 Y-0.4202
G1 X1.6262 Y-0.4116
G1 X1.6175 Y-0.4045
G1 X1.6075 Y-0.3993
G1 X1.5967 Y-0.3961
G1 X1.5855 Y-0.395
G1 X1.4976
G3 X1.4736 Y-0.4173 I0.0009 J-0.025
G1 X1.4298 Y-0.8274
G3 X1.4538 Y-0.855 I0.0249 J-0.0027
G1 X1.5378
G1 X1.5469 Y-0.8545
G1 X1.5557 Y-0.8534
G1 X1.565 Y-0.8514
G1 X1.5756 Y-0.8482
G1 X1.5864 Y-0.844
G1 X1.5987 Y-0.838
G1 X1.6109 Y-0.8309
G1 X1.6246 Y-0.8212
G1 X1.6379 Y-0.8102
G1 X1.6524 Y-0.7961
G1 X1.6665 Y-0.7799
G1 X1.6807 Y-0.7607
G1 X1.6951 Y-0.7376
G1 X1.7079 Y-0.7127
G1 X1.7198 Y-0.6843
G1 X1.7301 Y-0.6528
G1 X1.7381 Y-0.6193
G1 X1.7434 Y-0.5854
G1 X1.7459 Y-0.5522
G1 X1.7457 Y-0.5207
G1 X1.7434 Y-0.4934
G1 X1.7395 Y-0.4706
G1 X1.7349 Y-0.452
G1 X1.7294 Y-0.4359
G1 X1.7269 Y-0.4302
G1 X1.7215 Y-0.4203
G1 X1.7142 Y-0.4117
G1 X1.7054 Y-0.4046
G1 X1.6954 Y-0.3993
G1 X1.6846 Y-0.3961
G1 X1.6734 Y-0.395
G1 X1.5855
G3 X1.5615 Y-0.4171 I0.0009 J-0.025
G1 X1.5138 Y-0.8271
G3 X1.5378 Y-0.855 I0.0248 J-0.0029
G1 X1.6265
G1 X1.6348 Y-0.8546
G1 X1.6435 Y-0.8534
G1 X1.6529 Y-0.8514
G1 X1.6634 Y-0.8483
G1 X1.6742 Y-0.8441
G1 X1.6866 Y-0.8381
G1 X1.6988 Y-0.8309
G1 X1.7125 Y-0.8213
G1 X1.7258 Y-0.8102
G1 X1.7402 Y-0.7962
G1 X1.7545 Y-0.7798
G1 X1.7686 Y-0.7607
G1 X1.783 Y-0.7376
G1 X1.7959 Y-0.7125
G1 X1.8077 Y-0.6843
G1 X1.818 Y-0.6529
G1 X1.826 Y-0.6194
G1 X1.8313 Y-0.5854
G1 X1.8338 Y-0.5521
G1 X1.8336 Y-0.5206
G1 X1.8313 Y-0.4934
G1 X1.8274 Y-0.4706
G1 X1.8228 Y-0.452
G1 X1.8173 Y-0.436
G1 X1.8148 Y-0.4302
G1 X1.8094 Y-0.4203
G1 X1.8021 Y-0.4117
G1 X1.7933 Y-0.4046
G1 X1.7833 Y-0.3993
G1 X1.7725 Y-0.3961
G1 X1.7613 Y-0.395
G1 X1.6734
G3 X1.6494 Y-0.4171 I0.0009 J-0.025
G1 X1.6025 Y-0.8272
G3 X1.6265 Y-0.855 I0.0248 J-0.0028
G1 X1.7143
G1 X1.7227 Y-0.8546
G1 X1.7314 Y-0.8534
G1 X1.7408 Y-0.8514
G1 X1.7513 Y-0.8483
G1 X1.7621 Y-0.8441
G1 X1.7745 Y-0.8381
G1 X1.7867 Y-0.8309
G1 X1.8004 Y-0.8213
G1 X1.8137 Y-0.8102
G1 X1.8281 Y-0.7962
G1 X1.8424 Y-0.7798
G1 X1.8565 Y-0.7607
G1 X1.8709 Y-0.7376
G1 X1.8838 Y-0.7125
G1 X1.8956 Y-0.6843
G1 X1.9059 Y-0.6529
G1 X1.9139 Y-0.6194
G1 X1.9192 Y-0.5854
G1 X1.9217 Y-0.5521
G1 X1.9215 Y-0.5206
G1 X1.9192 Y-0.4934
G1 X1.9153 Y-0.4706
G1 X1.9107 Y-0.452
G1 X1.9052 Y-0.436
G1 X1.9027 Y-0.4302
G1 X1.8973 Y-0.4203
G1 X1.89 Y-0.4117
G1 X1.8812 Y-0.4046
G1 X1.8712 Y-0.3993
G1 X1.8604 Y-0.3961
G1 X1.8492 Y-0.395
G1 X1.7613
G3 X1.7373 Y-0.4171 I0.0009 J-0.025
G1 X1.6903 Y-0.8272
G3 X1.7143 Y-0.855 I0.0248 J-0.0028
G1 X1.8029
G1 X1.8106 Y-0.8546
G1 X1.8192 Y-0.8535
G1 X1.8286 Y-0.8515
G1 X1.8392 Y-0.8483
G1 X1.85 Y-0.8441
G1 X1.8624 Y-0.8381
G1 X1.8746 Y-0.8309
G1 X1.8883 Y-0.8213
G1 X1.9016 Y-0.8102
G1 X1.916 Y-0.7962
G1 X1.9303 Y-0.7798
G1 X1.9444 Y-0.7607
G1 X1.9588 Y-0.7376
G1 X1.9717 Y-0.7126
G1 X1.9835 Y-0.6843
G1 X1.9938 Y-0.6529
G1 X2.0018 Y-0.6194
G1 X2.0071 Y-0.5854
G1 X2.0096 Y-0.5521
G1 X2.0094 Y-0.5206
G1 X2.0071 Y-0.4934
G1 X2.0032 Y-0.4706
G1 X1.9986 Y-0.452
G1 X1.9931 Y-0.436
G1 X1.9906 Y-0.4302
G1 X1.9852 Y-0.4203
G1 X1.9779 Y-0.4117
G1 X1.9691 Y-0.4046
G1 X1.9591 Y-0.3993
G1 X1.9483 Y-0.3961
G1 X1.9371 Y-0.395
G1 X1.8492
G3 X1.8252 Y-0.4172 I0.0009 J-0.025
G1 X1.7789 Y-0.8272
G3 X1.8029 Y-0.855 I0.0248 J-0.0028
G1 X1.8907
G1 X1.8985 Y-0.8546
G1 X1.9071 Y-0.8535
G1 X1.9165 Y-0.8515
G1 X1.9271 Y-0.8483
G1 X1.9379 Y-0.8441
G1 X1.9503 Y-0.8381
G1 X1.9625 Y-0.8309
G1 X1.9762 Y-0.8213
G1 X1.9895 Y-0.8102
G1 X2.0039 Y-0.7962
G1 X2.0182 Y-0.7798
G1 X2.0323 Y-0.7607
G1 X2.0467 Y-0.7376
G1 X2.0596 Y-0.7126
G1 X2.0714 Y-0.6843
G1 X2.0817 Y-0.6529
G1 X2.0897 Y-0.6194
G1 X2.095 Y-0.5854
G1 X2.0975 Y-0.5521
G1 X2.0973 Y-0.5206
G1 X2.095 Y-0.4934
G1 X2.0911 Y-0.4706
G1 X2.0865 Y-0.452
G1 X2.081 Y-0.436
G1 X2.0785 Y-0.4302
G1 X2.0731 Y-0.4203
G1 X2.0658 Y-0.4117
G1 X2.057 Y-0.4046
G1 X2.047 Y-0.3993
G1 X2.0362 Y-0.3961
G1 X2.025 Y-0.395
G1 X1.9371
G3 X1.9131 Y-0.4172 I0.0009 J-0.025
G1 X1.8667 Y-0.8272
G3 X1.8907 Y-0.855 I0.0248 J-0.0028
G1 X1.9747
G1 X1.9866 Y-0.8544
G1 X1.9952 Y-0.8533
G1 X2.0046 Y-0.8513
G1 X2.0151 Y-0.8481
G1 X2.0259 Y-0.8439
G1 X2.0383 Y-0.8379
G1 X2.0505 Y-0.8307
G1 X2.0641 Y-0.8211
G1 X2.0775 Y-0.81
G1 X2.0918 Y-0.796
G1 X2.1061 Y-0.7797
G1 X2.1202 Y-0.7606
G1 X2.1346 Y-0.7375
G1 X2.1475 Y-0.7125
G1 X2.1593 Y-0.6843
G1 X2.1696 Y-0.6529
G1 X2.1776 Y-0.6194
G1 X2.1829 Y-0.5854
G1 X2.1854 Y-0.5521
G1 X2.1852 Y-0.5206
G1 X2.1829 Y-0.4934
G1 X2.179 Y-0.4706
G1 X2.1744 Y-0.452
G1 X2.1689 Y-0.436
G1 X2.1664 Y-0.4302
G1 X2.161 Y-0.4203
G1 X2.1537 Y-0.4117
G1 X2.1449 Y-0.4046
G1 X2.1349 Y-0.3993
G1 X2.1241 Y-0.3961
G1 X2.1129 Y-0.395
G1 X2.025
G3 X2.001 Y-0.4169 I0.0009 J-0.025
G1 X1.9508 Y-0.827
G3 X1.9747 Y-0.855 I0.0248 J-0.003
G1 X2.0671
G1 X2.0742 Y-0.8546
G1 X2.0829 Y-0.8535
G1 X2.0923 Y-0.8515
G1 X2.1028 Y-0.8483
G1 X2.1137 Y-0.8441
G1 X2.126 Y-0.8381
G1 X2.1382 Y-0.8309
G1 X2.1519 Y-0.8213
G1 X2.1653 Y-0.8102
G1 X2.1797 Y-0.7962
G1 X2.194 Y-0.7798
G1 X2.2081 Y-0.7607
G1 X2.2225 Y-0.7376
G1 X2.2354 Y-0.7125
G1 X2.2472 Y-0.6843
G1 X2.2575 Y-0.6529
G1 X2.2655 Y-0.6194
G1 X2.2708 Y-0.5854
G1 X2.2733 Y-0.5521
G1 X2.2731 Y-0.5206
G1 X2.2708 Y-0.4934
G1 X2.2669 Y-0.4706
G1 X2.2623 Y-0.452
G1 X2.2568 Y-0.436
G1 X2.2543 Y-0.4302
G1 X2.2489 Y-0.4203
G1 X2.2416 Y-0.4117
G1 X2.2328 Y-0.4046
G1 X2.2228 Y-0.3993
G1 X2.212 Y-0.3961
G1 X2.2008 Y-0.395
G1 X2.1129
G3 X2.0889 Y-0.4172 I0.0009 J-0.025
G1 X2.0432 Y-0.8272
G3 X2.0671 Y-0.855 I0.0248 J-0.0028
G1 X2.1512
G1 X2.1623 Y-0.8544
G1 X2.1709 Y-0.8533
G1 X2.1803 Y-0.8513
G1 X2.1909 Y-0.8481
G1 X2.2017 Y-0.8439
G1 X2.214 Y-0.8379
G1 X2.2262 Y-0.8308
G1 X2.2399 Y-0.8212
G1 X2.2533 Y-0.8101
G1 X2.2676 Y-0.7961
G1 X2.2819 Y-0.7797
G1 X2.296 Y-0.7606
G1 X2.3104 Y-0.7375
G1 X2.3233 Y-0.7125
G1 X2.3351 Y-0.6843
G1 X2.3454 Y-0.6529
G1 X2.3534 Y-0.6194
G1 X2.3587 Y-0.5854
G1 X2.3612 Y-0.5521
G1 X2.361 Y-0.5206
G1 X2.3587 Y-0.4934
G1 X2.3548 Y-0.4706
G1 X2.3502 Y-0.452
G1 X2.3447 Y-0.436
G1 X2.3422 Y-0.4302
G1 X2.3368 Y-0.4203
G1 X2.3295 Y-0.4117
G1 X2.3207 Y-0.4046
G1 X2.3107 Y-0.3993
G1 X2.2999 Y-0.3961
G1 X2.2887 Y-0.395
G1 X2.2008
G3 X2.1768 Y-0.417 I0.0009 J-0.025
G1 X2.1272 Y-0.827
G3 X2.1512 Y-0.855 I0.0248 J-0.003
G1 X2.2436
G1 X2.2499 Y-0.8547
G1 X2.2586 Y-0.8535
G1 X2.268 Y-0.8515
G1 X2.2786 Y-0.8484
G1 X2.2894 Y-0.8441
G1 X2.3018 Y-0.8381
G1 X2.314 Y-0.831
G1 X2.3277 Y-0.8213
G1 X2.3411 Y-0.8102
G1 X2.3555 Y-0.7962
G1 X2.3697 Y-0.7798
G1 X2.3839 Y-0.7608
G1 X2.3983 Y-0.7376
G1 X2.4112 Y-0.7126
G1 X2.423 Y-0.6843
G1 X2.4333 Y-0.6529
G1 X2.4413 Y-0.6194
G1 X2.4466 Y-0.5854
G1 X2.4491 Y-0.5521
G1 X2.4489 Y-0.5206
G1 X2.4466 Y-0.4934
G1 X2.4427 Y-0.4706
G1 X2.4381 Y-0.452
G1 X2.4326 Y-0.436
G1 X2.4301 Y-0.4302
G1 X2.4247 Y-0.4203
G1 X2.4174 Y-0.4117
G1 X2.4086 Y-0.4046
G1 X2.3986 Y-0.3993
G1 X2.3878 Y-0.3961
G1 X2.3766 Y-0.395
G1 X2.2887
G3 X2.2647 Y-0.4173 I0.0009 J-0.025
G1 X2.2196 Y-0.8273
G3 X2.2436 Y-0.855 I0.0249 J-0.0027
G1 X2.3276
G1 X2.3381 Y-0.8545
G1 X2.3467 Y-0.8533
G1 X2.3561 Y-0.8513
G1 X2.3666 Y-0.8482
G1 X2.3775 Y-0.844
G1 X2.3898 Y-0.838
G1 X2.402 Y-0.8308
G1 X2.4157 Y-0.8212
G1 X2.429 Y-0.8101
G1 X2.4434 Y-0.7961
G1 X2.4577 Y-0.7797
G1 X2.4718 Y-0.7607
G1 X2.4862 Y-0.7375
G1 X2.4991 Y-0.7125
G1 X2.5109 Y-0.6843
G1 X2.5212 Y-0.6529
G1 X2.5292 Y-0.6194
G1 X2.5345 Y-0.5854
G1 X2.537 Y-0.5521
G1 X2.5368 Y-0.5206
G1 X2.5345 Y-0.4934
G1 X2.5306 Y-0.4706
G1 X2.5259 Y-0.452
G1 X2.5205 Y-0.436
G1 X2.518 Y-0.4302
G1 X2.5126 Y-0.4203
G1 X2.5053 Y-0.4117
G1 X2.4965 Y-0.4046
G1 X2.4865 Y-0.3993
G1 X2.4757 Y-0.3961
G1 X2.4645 Y-0.395
G1 X2.3766
G3 X2.3526 Y-0.417 I0.0009 J-0.025
G1 X2.3037 Y-0.8271
G3 X2.3276 Y-0.855 I0.0248 J-0.003
G1 X2.42
G1 X2.4257 Y-0.8547
G1 X2.4344 Y-0.8536
G1 X2.4438 Y-0.8516
G1 X2.4544 Y-0.8484
G1 X2.4652 Y-0.8442
G1 X2.4776 Y-0.8382
G1 X2.4898 Y-0.831
G1 X2.5035 Y-0.8214
G1 X2.5169 Y-0.8103
G1 X2.5312 Y-0.7962
G1 X2.5455 Y-0.7799
G1 X2.5596 Y-0.7608
G1 X2.5741 Y-0.7376
G1 X2.587 Y-0.7126
G1 X2.5988 Y-0.6843
G1 X2.609 Y-0.6529
G1 X2.6171 Y-0.6194
G1 X2.6224 Y-0.5854
G1 X2.6249 Y-0.5521
G1 X2.6247 Y-0.5206
G1 X2.6224 Y-0.4934
G1 X2.6185 Y-0.4706
G1 X2.6138 Y-0.452
G1 X2.6084 Y-0.436
G1 X2.6059 Y-0.4302
G1 X2.6005 Y-0.4203
G1 X2.5932 Y-0.4117
G1 X2.5844 Y-0.4046
G1 X2.5744 Y-0.3993
G1 X2.5636 Y-0.3961
G1 X2.5524 Y-0.395
G1 X2.4645
G3 X2.4405 Y-0.4173 I0.0009 J-0.025
G1 X2.396 Y-0.8273
G3 X2.42 Y-0.855 I0.0249 J-0.0027
G1 X2.504
G1 X2.5139 Y-0.8545
G1 X2.5225 Y-0.8534
G1 X2.5319 Y-0.8514
G1 X2.5424 Y-0.8482
G1 X2.5533 Y-0.844
G1 X2.5656 Y-0.838
G1 X2.5778 Y-0.8308
G1 X2.5915 Y-0.8212
G1 X2.6048 Y-0.8101
G1 X2.6192 Y-0.7961
G1 X2.6335 Y-0.7798
G1 X2.6476 Y-0.7607
G1 X2.662 Y-0.7376
G1 X2.6749 Y-0.7125
G1 X2.6867 Y-0.6843
G1 X2.6969 Y-0.6529
G1 X2.705 Y-0.6194
G1 X2.7103 Y-0.5854
G1 X2.7128 Y-0.5521
G1 X2.7126 Y-0.5206
G1 X2.7103 Y-0.4934
G1 X2.7064 Y-0.4706
G1 X2.7017 Y-0.452
G1 X2.6963 Y-0.436
G1 X2.6938 Y-0.4302
G1 X2.6884 Y-0.4203
G1 X2.6811 Y-0.4117
G1 X2.6723 Y-0.4046
G1 X2.6623 Y-0.3993
G1 X2.6515 Y-0.3961
G1 X2.6403 Y-0.395
G1 X2.5524
G3 X2.5284 Y-0.4171 I0.0009 J-0.025
G1 X2.4801 Y-0.8271
G3 X2.504 Y-0.855 I0.0248 J-0.0029
G1 X2.5965
G1 X2.6019 Y-0.8547
G1 X2.6105 Y-0.8536
G1 X2.62 Y-0.8515
G1 X2.6306 Y-0.8483
G1 X2.6415 Y-0.844
G1 X2.6539 Y-0.838
G1 X2.6661 Y-0.8307
G1 X2.6798 Y-0.821
G1 X2.6932 Y-0.8098
G1 X2.7076 Y-0.7957
G1 X2.722 Y-0.7791
G1 X2.736 Y-0.76
G1 X2.7504 Y-0.7367
G1 X2.7633 Y-0.7114
G1 X2.775 Y-0.6831
G1 X2.7852 Y-0.6516
G1 X2.7931 Y-0.6181
G1 X2.7983 Y-0.584
G1 X2.8007 Y-0.5508
G1 X2.8004 Y-0.5192
G1 X2.798 Y-0.4925
G1 X2.7941 Y-0.4698
G1 X2.7894 Y-0.4513
G1 X2.784 Y-0.4354
G1 X2.7816 Y-0.43
G1 X2.7762 Y-0.4202
G1 X2.7689 Y-0.4116
G1 X2.7601 Y-0.4045
G1 X2.7502 Y-0.3993
G1 X2.7394 Y-0.3961
G1 X2.7282 Y-0.395
G1 X2.6403
G3 X2.6163 Y-0.4173 I0.0009 J-0.025
G1 X2.5725 Y-0.8274
G3 X2.5965 Y-0.855 I0.0249 J-0.0027
G1 X2.6805
G1 X2.695 Y-0.8542
G1 X2.7057 Y-0.8528
G1 X2.7162 Y-0.8503
G1 X2.7265 Y-0.847
G1 X2.7414 Y-0.8406
G1 X2.7555 Y-0.8328
G1 X2.769 Y-0.8237
G1 X2.7817 Y-0.8136
G1 X2.7936 Y-0.8027
G1 X2.8047 Y-0.7909
G1 X2.8152 Y-0.7785
G1 X2.8249 Y-0.7656
G1 X2.8367 Y-0.7475
G1 X2.8474 Y-0.7287
G1 X2.8569 Y-0.7093
G1 X2.8652 Y-0.6894
G1 X2.8725 Y-0.6691
G1 X2.8786 Y-0.6484
G1 X2.8849 Y-0.6221
G1 X2.8894 Y-0.5955
G1 X2.8919 Y-0.574
G1 X2.8932 Y-0.5525
G1 X2.8934 Y-0.5309
G1 X2.8924 Y-0.5093
G1 X2.8901 Y-0.4878
G1 X2.8863 Y-0.4666
G1 X2.8823 Y-0.4509
G1 X2.8772 Y-0.4355
G1 X2.8759 Y-0.4322
G1 X2.8706 Y-0.4218
G1 X2.8634 Y-0.4127
G1 X2.8545 Y-0.4052
G1 X2.8442 Y-0.3996
G1 X2.8331 Y-0.3962
G1 X2.8215 Y-0.395
G1 X2.7282
G3 X2.7042 Y-0.4171 I0.0009 J-0.025
G1 X2.6565 Y-0.8271
G3 X2.6805 Y-0.855 I0.0248 J-0.0029
G1 X2.7729
G1 X2.7826 Y-0.8545
G1 X2.7912 Y-0.8534
G1 X2.8007 Y-0.8514
G1 X2.811 Y-0.8483
G1 X2.8221 Y-0.8439
G1 X2.834 Y-0.8382
G1 X2.8466 Y-0.8308
G1 X2.8598 Y-0.8215
G1 X2.8735 Y-0.8101
G1 X2.8912 Y-0.7923
G1 X2.9056 Y-0.7752
G1 X2.9109 Y-0.7676
G3 X2.8761 Y-0.7332 I-0.0211 J0.0135
G1 X2.7601 Y-0.8091
G3 X2.7729 Y-0.855 I0.0137 J-0.0209
G1 X2.8616
G1 X2.8636
G1 X2.8653
G1 X2.8707 Y-0.8547
G1 X2.8799 Y-0.8534
G1 X2.8891 Y-0.8536
G1 X2.8985 Y-0.8549
G1 X2.902 Y-0.855
G3 X2.9011 Y-0.805 I-0.0009 J0.025
G1 X2.8662
G3 X2.8653 Y-0.855 I0. J-0.025
G1 X2.996 Y-0.8551
G1 X2.9992 Y-0.8548
G1 X3.0024 Y-0.854
G1 X3.0055 Y-0.8529
G1 X3.0091 Y-0.8513 Z-0.3934
G1 X3.0125 Y-0.8497 Z-0.3925
G1 X3.0158 Y-0.8482 Z-0.391
G1 X3.0189 Y-0.8468 Z-0.3889
G1 X3.0216 Y-0.8456 Z-0.3864
G1 X3.0239 Y-0.8446 Z-0.3834
G1 X3.0258 Y-0.8437 Z-0.3801
G1 X3.0272 Y-0.8431 Z-0.3764
G1 X3.028 Y-0.8427 Z-0.3726
G1 X3.0283 Y-0.8426 Z-0.3687
G0 Z0.2
G0 X3.1564 Y-0.3317
G0 Z-0.3437
G1 Z-0.3687 F40.
G1 X3.1561 Y-0.3316 Z-0.3726
G1 X3.1552 Y-0.3312 Z-0.3764
G1 X3.1539 Y-0.3307 Z-0.3801
G1 X3.152 Y-0.3299 Z-0.3834
G1 X3.1496 Y-0.3289 Z-0.3864
G1 X3.1468 Y-0.3278 Z-0.3889
G1 X3.1438 Y-0.3265 Z-0.391
G1 X3.1404 Y-0.3251 Z-0.3925
G1 X3.1369 Y-0.3237 Z-0.3934
G1 X3.1333 Y-0.3222 Z-0.3937
G1 X3.1312 Y-0.3217
G1 X3.1291
G1 X3.1271 Y-0.3223
G1 X3.1253 Y-0.3234
G1 X3.1238 Y-0.325
G1 X3.1161 Y-0.3363
G1 X3.109 Y-0.3452
G1 X3.1006 Y-0.3543
G1 X3.0922 Y-0.3617
G1 X3.0811 Y-0.3699
G1 X3.0754 Y-0.3738
G1 X3.067 Y-0.3785
G1 X3.0586 Y-0.3825
G1 X3.048 Y-0.3867
G1 X3.0418 Y-0.3888
G1 X3.0334 Y-0.3909
G1 X3.025 Y-0.3925
G1 X3.0082 Y-0.3945
G1 X2.9998 Y-0.3949
G1 X2.8215 Y-0.395
G1 X2.8183 Y-0.3953
G1 X2.8151 Y-0.3961
G1 X2.812 Y-0.3972
G1 X2.8085 Y-0.3989 Z-0.3934
G1 X2.805 Y-0.4004 Z-0.3925
G1 X2.8017 Y-0.4019 Z-0.391
G1 X2.7987 Y-0.4033 Z-0.3889
G1 X2.7959 Y-0.4046 Z-0.3864
G1 X2.7936 Y-0.4056 Z-0.3834
G1 X2.7918 Y-0.4065 Z-0.3801
G1 X2.7904 Y-0.4071 Z-0.3764
G1 X2.7896 Y-0.4075 Z-0.3726
G1 X2.7893 Y-0.4076 Z-0.3687
G0 Z0.2
G0 X3.1569 Y-2.2679
G0 Z-0.3437
G1 Z-0.3687 F40.
G1 X3.1566 Y-2.2678 Z-0.3726
G1 X3.1557 Y-2.2676 Z-0.3764
G1 X3.1543 Y-2.2672 Z-0.3801
G1 X3.1523 Y-2.2666 Z-0.3834
G1 X3.1498 Y-2.2659 Z-0.3864
G1 X3.147 Y-2.2651 Z-0.3889
G1 X3.1437 Y-2.2642 Z-0.391
G1 X3.1403 Y-2.2632 Z-0.3925
G1 X3.1366 Y-2.2621 Z-0.3934
G1 X3.1328 Y-2.2611 Z-0.3937
G1 X3.1307 Y-2.2608
G1 X3.1286 Y-2.261
G1 X3.1267 Y-2.2619
G1 X3.125 Y-2.2632
G1 X3.1238 Y-2.2649
G1 X3.1219 Y-2.2688
G1 X3.1169 Y-2.2772
G1 X3.109 Y-2.2887
G1 X3.105 Y-2.294
G1 X3.0987 Y-2.3009
G1 X3.0943 Y-2.3056
G1 X3.0876 Y-2.3141
G1 X3.0802 Y-2.3251
G1 X3.0724 Y-2.3392
G1 X3.064 Y-2.3575
G1 X3.0552 Y-2.3817
G1 X3.0461 Y-2.415
G1 X3.0392 Y-2.4514
G1 X3.0345 Y-2.4881
G1 X3.0312 Y-2.5249
G1 X3.0289 Y-2.5619
G1 X3.0274 Y-2.5988
G1 X3.0255 Y-2.6728
G1 X3.0243 Y-2.7838
G1 X3.024 Y-2.8856
G1 X3.0225 Y-2.8947
G1 X3.0167 Y-2.9123
G1 X2.9956 Y-2.9427
G1 X2.9665 Y-2.9656
G1 X2.9336 Y-2.9823
G1 X2.8986 Y-2.9944
G1 X2.8626 Y-3.0031
G1 X2.8261 Y-3.0092
G1 X2.7894 Y-3.0136
G1 X2.7525 Y-3.0166
G1 X2.7156 Y-3.0188
G1 X2.6786 Y-3.0203
G1 X2.6046 Y-3.022
G1 X2.4936 Y-3.0232
G1 X2.1606 Y-3.0237
G1 X1.6795
G1 X0.1162 Y-3.0238
G1 X0.107 Y-3.0223
G1 X0.0895 Y-3.0165
G1 X0.0586 Y-2.996
G1 X0.0354 Y-2.9672
G1 X0.0184 Y-2.9344
G1 X0.0061 Y-2.8995
G1 X-0.0027 Y-2.8635
G1 X-0.009 Y-2.8271
G1 X-0.0134 Y-2.7903
G1 X-0.0165 Y-2.7535
G1 X-0.0187 Y-2.7165
G1 X-0.0202 Y-2.6796
G1 X-0.0213 Y-2.6426
G1 X-0.0225 Y-2.5686
G1 X-0.0235 Y-2.4206
G1 Y-2.3837
G1 X-0.0249 Y-2.3713
G1 X-0.0289 Y-2.3595
G1 X-0.0352 Y-2.3488
G1 X-0.0437 Y-2.3397
G1 X-0.0539 Y-2.3326
G1 X-0.0569 Y-2.3314
G1 X-0.0601 Y-2.3305
G1 X-0.0633 Y-2.3301
G1 X-0.0672 Y-2.3298 Z-0.3934
G1 X-0.071 Y-2.3295 Z-0.3925
G1 X-0.0747 Y-2.3292 Z-0.391
G1 X-0.078 Y-2.329 Z-0.3889
G1 X-0.081 Y-2.3288 Z-0.3864
G1 X-0.0835 Y-2.3286 Z-0.3834
G1 X-0.0856 Y-2.3285 Z-0.3801
G1 X-0.0871 Y-2.3283 Z-0.3764
G1 X-0.088 Z-0.3726
G1 X-0.0883 Z-0.3687
G0 Z0.2
G0 X3.1288 Y-2.3149
G0 Z-0.3437
G1 Z-0.3687 F40.
G1 X3.1286 Y-2.3147 Z-0.3726
G1 X3.1278 Y-2.3142 Z-0.3764
G1 X3.1266 Y-2.3133 Z-0.3801
G1 X3.1249 Y-2.3121 Z-0.3834
G1 X3.1229 Y-2.3106 Z-0.3864
G1 X3.1204 Y-2.3089 Z-0.3889
G1 X3.1177 Y-2.3069 Z-0.391
G1 X3.1148 Y-2.3048 Z-0.3925
G1 X3.1117 Y-2.3026 Z-0.3934
G1 X3.1085 Y-2.3003 Z-0.3937
G1 X3.1066 Y-2.2993
G1 X3.1046 Y-2.2989
G1 X3.1024 Y-2.299
G1 X3.1004 Y-2.2997
G1 X3.0987 Y-2.3009
G1 X3.0838 Y-2.3145
G1 X3.078 Y-2.3192
G1 X3.067 Y-2.3255
G1 X3.0512 Y-2.334
G1 X3.0462 Y-2.336
G1 X3.0392 Y-2.34
G1 X3.0323 Y-2.3447
G1 X3.0244 Y-2.351
G1 X3.0158 Y-2.3593
G1 X3.0072 Y-2.3688
G1 X2.9978 Y-2.3813
G1 X2.9882 Y-2.3961
G1 X2.9781 Y-2.4152
G1 X2.9678 Y-2.4388
G1 X2.9573 Y-2.4697
G1 X2.9482 Y-2.5056
G1 X2.9416 Y-2.542
G1 X2.9367 Y-2.5787
G1 X2.9332 Y-2.6155
G1 X2.9306 Y-2.6524
G1 X2.9287 Y-2.6894
G1 X2.9264 Y-2.7634
G1 X2.9156 Y-2.7987
G1 X2.8937 Y-2.8286
G1 X2.8654 Y-2.8525
G1 X2.8333 Y-2.8709
G1 X2.799 Y-2.8848
G1 X2.7635 Y-2.8952
G1 X2.7274 Y-2.9029
G1 X2.6908 Y-2.9086
G1 X2.654 Y-2.9128
G1 X2.6171 Y-2.9158
G1 X2.5802 Y-2.918
G1 X2.5432 Y-2.9196
G1 X2.4693 Y-2.9216
G1 X2.3583 Y-2.923
G1 X2.0992 Y-2.9237
G1 X1.4702
G1 X0.2491 Y-2.9238
G1 X0.2308 Y-2.9209
G1 X0.196 Y-2.9084
G1 X0.167 Y-2.8854
G1 X0.144 Y-2.8564
G1 X0.1264 Y-2.8239
G1 X0.1131 Y-2.7893
G1 X0.1032 Y-2.7537
G1 X0.0959 Y-2.7174
G1 X0.0905 Y-2.6808
G1 X0.0866 Y-2.644
G1 X0.0837 Y-2.6071
G1 X0.0816 Y-2.5702
G1 X0.0801 Y-2.5332
G1 X0.0781 Y-2.4592
G1 X0.076 Y-2.4279
G1 X0.0726 Y-2.4052
G1 X0.0678 Y-2.385
G1 X0.0629 Y-2.3738
G1 X0.0558 Y-2.3639
G1 X0.0467 Y-2.3557
G1 X0.0362 Y-2.3495
G1 X0.0246 Y-2.3457
G1 X0.0125 Y-2.3444
G1 X0.004 Y-2.3443
G1 X0.0008 Y-2.3446
G1 X-0.0024 Y-2.3454
G1 X-0.0055 Y-2.3465
G1 X-0.0091 Y-2.3481 Z-0.3934
G1 X-0.0125 Y-2.3497 Z-0.3925
G1 X-0.0158 Y-2.3512 Z-0.391
G1 X-0.0189 Y-2.3526 Z-0.3889
G1 X-0.0216 Y-2.3538 Z-0.3864
G1 X-0.0239 Y-2.3548 Z-0.3834
G1 X-0.0258 Y-2.3557 Z-0.3801
G1 X-0.0272 Y-2.3563 Z-0.3764
G1 X-0.028 Y-2.3567 Z-0.3726
G1 X-0.0283 Y-2.3568 Z-0.3687
G0 Z0.2
G0 X3.0785 Y-2.3541
G0 Z-0.3437
G1 Z-0.3687 F40.
G1 X3.0782 Y-2.3538 Z-0.3726
G1 X3.0776 Y-2.3532 Z-0.3764
G1 X3.0765 Y-2.3521 Z-0.3801
G1 X3.0751 Y-2.3507 Z-0.3834
G1 X3.0733 Y-2.3489 Z-0.3864
G1 X3.0712 Y-2.3468 Z-0.3889
G1 X3.0688 Y-2.3444 Z-0.391
G1 X3.0662 Y-2.3419 Z-0.3925
G1 X3.0635 Y-2.3392 Z-0.3934
G1 X3.0607 Y-2.3364 Z-0.3937
G1 X3.0591 Y-2.3351
G1 X3.0573 Y-2.3342
G1 X3.0553 Y-2.3337
G1 X3.0533 Y-2.3336
G1 X3.0512 Y-2.334
G1 X3.0313 Y-2.3407
G1 X3.0082 Y-2.3438
G1 X3.0035 Y-2.3441
G1 X2.9982 Y-2.3447
G1 X2.9916 Y-2.3461
G1 X2.9847 Y-2.3482
G1 X2.977 Y-2.3512
G1 X2.9683 Y-2.3555
G1 X2.9597 Y-2.3606
G1 X2.9499 Y-2.3675
G1 X2.9398 Y-2.376
G1 X2.9293 Y-2.3863
G1 X2.9179 Y-2.3994
G1 X2.9068 Y-2.4145
G1 X2.8949 Y-2.4337
G1 X2.883 Y-2.4571
G1 X2.871 Y-2.4859
G1 X2.8597 Y-2.5211
G1 X2.851 Y-2.5571
G1 X2.8443 Y-2.5935
G1 X2.8393 Y-2.6302
G1 X2.8337 Y-2.6667
G1 X2.8177 Y-2.7001
G1 X2.7936 Y-2.7282
G1 X2.7644 Y-2.7509
G1 X2.732 Y-2.7687
G1 X2.6976 Y-2.7825
G1 X2.6621 Y-2.793
G1 X2.626 Y-2.8009
G1 X2.5895 Y-2.8068
G1 X2.5527 Y-2.8113
G1 X2.5159 Y-2.8146
G1 X2.479 Y-2.817
G1 X2.442 Y-2.8188
G1 X2.368 Y-2.8211
G1 X2.257 Y-2.8227
G1 X2.035 Y-2.8236
G1 X1.295 Y-2.8237
G1 X0.3699 Y-2.8238
G1 X0.333 Y-2.8207
G1 X0.2992 Y-2.8056
G1 X0.2709 Y-2.7818
G1 X0.2481 Y-2.7527
G1 X0.2303 Y-2.7202
G1 X0.2167 Y-2.6858
G1 X0.2063 Y-2.6503
G1 X0.1985 Y-2.6141
G1 X0.1927 Y-2.5776
G1 X0.1883 Y-2.5408
G1 X0.1845 Y-2.504
G1 X0.1801 Y-2.4673
G1 X0.1748 Y-2.4342
G1 X0.1691 Y-2.4111
G1 X0.1629 Y-2.3924
G1 X0.1577 Y-2.38
G1 X0.1522 Y-2.37
G1 X0.145 Y-2.3613
G1 X0.1362 Y-2.3541
G1 X0.1261 Y-2.3488
G1 X0.1153 Y-2.3455
G1 X0.104 Y-2.3444
G1 X0.0125
G1 X0.0092 Y-2.3447
G1 X0.006 Y-2.3454
G1 X0.003 Y-2.3466
G1 X-0.0006 Y-2.3482 Z-0.3934
G1 X-0.0041 Y-2.3497 Z-0.3925
G1 X-0.0074 Y-2.3512 Z-0.391
G1 X-0.0104 Y-2.3526 Z-0.3889
G1 X-0.0132 Y-2.3538 Z-0.3864
G1 X-0.0155 Y-2.3549 Z-0.3834
G1 X-0.0174 Y-2.3557 Z-0.3801
G1 X-0.0187 Y-2.3563 Z-0.3764
G1 X-0.0196 Y-2.3567 Z-0.3726
G1 X-0.0198 Y-2.3568 Z-0.3687
G0 Z0.2
G0 X3.0172 Y-2.3744
G0 Z-0.3437
G1 Z-0.3687 F40.
G1 Y-2.3741 Z-0.3726
G1 X3.0169 Y-2.3732 Z-0.3764
G1 X3.0166 Y-2.3717 Z-0.3801
G1 X3.0161 Y-2.3697 Z-0.3834
G1 X3.0155 Y-2.3672 Z-0.3864
G1 X3.0148 Y-2.3643 Z-0.3889
G1 X3.014 Y-2.3611 Z-0.391
G1 X3.0132 Y-2.3576 Z-0.3925
G1 X3.0123 Y-2.3539 Z-0.3934
G1 X3.0113 Y-2.3501 Z-0.3937
G1 X3.0106 Y-2.3481
G1 X3.0093 Y-2.3464
G1 X3.0076 Y-2.3451
G1 X3.0057 Y-2.3443
G1 X3.0035 Y-2.3441
G1 X2.9662 Y-2.3444
G1 X2.941
G1 X2.9342 Y-2.3447
G1 X2.9267 Y-2.3457
G1 X2.9189 Y-2.3474
G1 X2.9099 Y-2.3501
G1 X2.9007 Y-2.3536
G1 X2.8904 Y-2.3587
G1 X2.8797 Y-2.3649
G1 X2.8683 Y-2.373
G1 X2.8562 Y-2.383
G1 X2.8439 Y-2.395
G1 X2.8306 Y-2.4103
G1 X2.8176 Y-2.4278
G1 X2.8041 Y-2.4495
G1 X2.7904 Y-2.4761
G1 X2.7764 Y-2.5095
G1 X2.7649 Y-2.5447
G1 X2.7503 Y-2.5786
G1 X2.7287 Y-2.6087
G1 X2.7016 Y-2.6339
G1 X2.6708 Y-2.6544
G1 X2.6376 Y-2.6706
G1 X2.6028 Y-2.6833
G1 X2.5671 Y-2.6932
G1 X2.5309 Y-2.7007
G1 X2.4943 Y-2.7064
G1 X2.4576 Y-2.7108
G1 X2.4207 Y-2.7141
G1 X2.3838 Y-2.7165
G1 X2.3469 Y-2.7184
G1 X2.2729 Y-2.7208
G1 X2.1619 Y-2.7226
G1 X1.9769 Y-2.7235
G1 X1.1258 Y-2.7237
G1 X0.4598
G1 X0.4238 Y-2.7153
G1 X0.3919 Y-2.6965
G1 X0.3654 Y-2.6706
G1 X0.3443 Y-2.6403
G1 X0.3277 Y-2.6072
G1 X0.3147 Y-2.5725
G1 X0.3041 Y-2.5371
G1 X0.2859 Y-2.4654
G1 X0.2758 Y-2.4297
G1 X0.2664 Y-2.4025
G1 X0.2575 Y-2.3822
G1 X0.2538 Y-2.3751
G1 X0.2467 Y-2.3648
G1 X0.2375 Y-2.3562
G1 X0.2267 Y-2.3497
G1 X0.2148 Y-2.3458
G1 X0.2024 Y-2.3444
G1 X0.104
G1 X0.1007 Y-2.3447
G1 X0.0975 Y-2.3455
G1 X0.0945 Y-2.3466
G1 X0.0909 Y-2.3483 Z-0.3934
G1 X0.0874 Y-2.3498 Z-0.3925
G1 X0.0841 Y-2.3513 Z-0.391
G1 X0.0811 Y-2.3527 Z-0.3889
G1 X0.0784 Y-2.354 Z-0.3864
G1 X0.0761 Y-2.355 Z-0.3834
G1 X0.0742 Y-2.3559 Z-0.3801
G1 X0.0728 Y-2.3565 Z-0.3764
G1 X0.072 Y-2.3569 Z-0.3726
G1 X0.0717 Y-2.357 Z-0.3687
G0 Z0.2
G0 X2.9528 Y-2.3754
G0 Z-0.3437
G1 Z-0.3687 F40.
G1 X2.9527 Y-2.3751 Z-0.3726
G1 X2.9526 Y-2.3742 Z-0.3764
G1 X2.9523 Y-2.3728 Z-0.3801
G1 X2.9519 Y-2.3707 Z-0.3834
G1 X2.9515 Y-2.3682 Z-0.3864
G1 X2.951 Y-2.3653 Z-0.3889
G1 X2.9504 Y-2.362 Z-0.391
G1 X2.9497 Y-2.3584 Z-0.3925
G1 X2.9491 Y-2.3547 Z-0.3934
G1 X2.9484 Y-2.3508 Z-0.3937
G1 X2.9477 Y-2.3488
G1 X2.9465 Y-2.3471
G1 X2.945 Y-2.3457
G1 X2.943 Y-2.3448
G1 X2.941 Y-2.3444
G1 X2.8653
G1 X2.8547 Y-2.3449
G1 X2.8468 Y-2.346
G1 X2.8377 Y-2.3479
G1 X2.8284 Y-2.3507
G1 X2.8176 Y-2.3549
G1 X2.8069 Y-2.3601
G1 X2.7947 Y-2.3673
G1 X2.7823 Y-2.376
G1 X2.769 Y-2.3871
G1 X2.7551 Y-2.4006
G1 X2.7408 Y-2.417
G1 X2.7188 Y-2.4468
G1 X2.6973 Y-2.4769
G1 X2.6726 Y-2.5045
G1 X2.6444 Y-2.5284
G1 X2.6133 Y-2.5484
G1 X2.5801 Y-2.5648
G1 X2.5455 Y-2.578
G1 X2.51 Y-2.5884
G1 X2.4739 Y-2.5966
G1 X2.4375 Y-2.603
G1 X2.4008 Y-2.6079
G1 X2.364 Y-2.6117
G1 X2.3271 Y-2.6146
G1 X2.2902 Y-2.6169
G1 X2.2532 Y-2.6186
G1 X2.1792 Y-2.6208
G1 X2.0683 Y-2.6225
G1 X1.8832 Y-2.6235
G1 X0.9582 Y-2.6237
G1 X0.5881
G1 X0.5512 Y-2.6225
G1 X0.5162 Y-2.6105
G1 X0.4857 Y-2.5895
G1 X0.4602 Y-2.5627
G1 X0.439 Y-2.5324
G1 X0.4209 Y-2.5001
G1 X0.4049 Y-2.4667
G1 X0.3743 Y-2.3993
G1 X0.3611 Y-2.375
G1 X0.3586 Y-2.371
G1 X0.3514 Y-2.362
G1 X0.3425 Y-2.3545
G1 X0.3323 Y-2.349
G1 X0.3212 Y-2.3456
G1 X0.3096 Y-2.3444
G1 X0.2024
G1 X0.1991 Y-2.3447
G1 X0.1959 Y-2.3455
G1 X0.1929 Y-2.3466
G1 X0.1893 Y-2.3483 Z-0.3934
G1 X0.1858 Y-2.3498 Z-0.3925
G1 X0.1825 Y-2.3513 Z-0.391
G1 X0.1795 Y-2.3527 Z-0.3889
G1 X0.1768 Y-2.354 Z-0.3864
G1 X0.1745 Y-2.355 Z-0.3834
G1 X0.1726 Y-2.3559 Z-0.3801
G1 X0.1712 Y-2.3565 Z-0.3764
G1 X0.1704 Y-2.3569 Z-0.3726
G1 X0.1701 Y-2.357 Z-0.3687
G0 Z0.2
G0 X2.8772 Y-2.3754
G0 Z-0.3437
G1 Z-0.3687 F40.
G1 X2.8771 Y-2.3751 Z-0.3726
G1 X2.8769 Y-2.3742 Z-0.3764
G1 X2.8767 Y-2.3728 Z-0.3801
G1 X2.8763 Y-2.3707 Z-0.3834
G1 X2.8759 Y-2.3682 Z-0.3864
G1 X2.8753 Y-2.3653 Z-0.3889
G1 X2.8748 Y-2.362 Z-0.391
G1 X2.8741 Y-2.3584 Z-0.3925
G1 X2.8734 Y-2.3547 Z-0.3934
G1 X2.8728 Y-2.3508 Z-0.3937
G1 X2.8721 Y-2.3488
G1 X2.8709 Y-2.3471
G1 X2.8693 Y-2.3457
G1 X2.8674 Y-2.3448
G1 X2.8653 Y-2.3444
G1 X2.7813
G1 X2.7702 Y-2.345
G1 X2.7619 Y-2.346
G1 X2.7525 Y-2.3481
G1 X2.7414 Y-2.3514
G1 X2.7288 Y-2.3563
G1 X2.7122 Y-2.3643
G1 X2.6803 Y-2.3831
G1 X2.6497 Y-2.4038
G1 X2.6185 Y-2.4237
G1 X2.5861 Y-2.4417
G1 X2.5526 Y-2.4573
G1 X2.518 Y-2.4704
G1 X2.4826 Y-2.4814
G1 X2.4467 Y-2.4903
G1 X2.4104 Y-2.4975
G1 X2.3739 Y-2.5033
G1 X2.3372 Y-2.5079
G1 X2.3003 Y-2.5115
G1 X2.2634 Y-2.5143
G1 X2.2265 Y-2.5165
G1 X2.1526 Y-2.5195
G1 X2.0786 Y-2.5213
G1 X1.9676 Y-2.5227
G1 X1.7456 Y-2.5236
G1 X0.8205 Y-2.5237
G1 X0.6725
G1 X0.6359 Y-2.5181
G1 X0.602 Y-2.5032
G1 X0.572 Y-2.4816
G1 X0.5456 Y-2.4557
G1 X0.522 Y-2.4272
G1 X0.4773 Y-2.3658
G1 X0.4681 Y-2.3568
G1 X0.4571 Y-2.35
G1 X0.4449 Y-2.3458
G1 X0.4321 Y-2.3444
G1 X0.3096
G1 X0.3064 Y-2.3447
G1 X0.3032 Y-2.3455
G1 X0.3001 Y-2.3466
G1 X0.2966 Y-2.3483 Z-0.3934
G1 X0.2931 Y-2.3498 Z-0.3925
G1 X0.2898 Y-2.3513 Z-0.391
G1 X0.2868 Y-2.3527 Z-0.3889
G1 X0.2841 Y-2.354 Z-0.3864
G1 X0.2817 Y-2.355 Z-0.3834
G1 X0.2799 Y-2.3559 Z-0.3801
G1 X0.2785 Y-2.3565 Z-0.3764
G1 X0.2777 Y-2.3569 Z-0.3726
G1 X0.2774 Y-2.357 Z-0.3687
G0 Z0.2
G0 X2.7931 Y-2.3754
G0 Z-0.3437
G1 Z-0.3687 F40.
G1 Y-2.3751 Z-0.3726
G1 X2.7929 Y-2.3742 Z-0.3764
G1 X2.7927 Y-2.3728 Z-0.3801
G1 X2.7923 Y-2.3707 Z-0.3834
G1 X2.7919 Y-2.3682 Z-0.3864
G1 X2.7913 Y-2.3653 Z-0.3889
G1 X2.7907 Y-2.362 Z-0.391
G1 X2.7901 Y-2.3584 Z-0.3925
G1 X2.7894 Y-2.3547 Z-0.3934
G1 X2.7887 Y-2.3508 Z-0.3937
G1 X2.7881 Y-2.3488
G1 X2.7869 Y-2.3471
G1 X2.7853 Y-2.3457
G1 X2.7834 Y-2.3448
G1 X2.7813 Y-2.3444
G1 X2.6637
G1 X2.64 Y-2.3456
G1 X2.6042 Y-2.3503
G1 X2.568 Y-2.358
G1 X2.496 Y-2.3753
G1 X2.4599 Y-2.3832
G1 X2.4236 Y-2.3903
G1 X2.3871 Y-2.3965
G1 X2.3505 Y-2.4017
G1 X2.3137 Y-2.4061
G1 X2.2769 Y-2.4096
G1 X2.24 Y-2.4126
G1 X2.2031 Y-2.4149
G1 X2.1291 Y-2.4183
G1 X2.0552 Y-2.4205
G1 X1.9442 Y-2.4222
G1 X1.7592 Y-2.4233
G1 X1.0561 Y-2.4237
G1 X0.7971
G1 X0.7601 Y-2.4234
G1 X0.7237 Y-2.4169
G1 X0.6893 Y-2.4031
G1 X0.6576 Y-2.384
G1 X0.6246 Y-2.3582
G1 X0.6163 Y-2.3523
G1 X0.607 Y-2.348
G1 X0.5972 Y-2.3453
G1 X0.587 Y-2.3444
G1 X0.4321
G1 X0.4289 Y-2.3447
G1 X0.4257 Y-2.3455
G1 X0.4226 Y-2.3466
G1 X0.4191 Y-2.3483 Z-0.3934
G1 X0.4156 Y-2.3498 Z-0.3925
G1 X0.4123 Y-2.3513 Z-0.391
G1 X0.4093 Y-2.3527 Z-0.3889
G1 X0.4065 Y-2.354 Z-0.3864
G1 X0.4042 Y-2.355 Z-0.3834
G1 X0.4024 Y-2.3559 Z-0.3801
G1 X0.401 Y-2.3565 Z-0.3764
G1 X0.4002 Y-2.3569 Z-0.3726
G1 X0.3999 Y-2.357 Z-0.3687
G0 Z0.2
G0 X2.6755 Y-2.3754
G0 Z-0.3437
G1 Z-0.3687 F40.
G1 Y-2.3751 Z-0.3726
G1 X2.6753 Y-2.3742 Z-0.3764
G1 X2.675 Y-2.3728 Z-0.3801
G1 X2.6747 Y-2.3707 Z-0.3834
G1 X2.6742 Y-2.3682 Z-0.3864
G1 X2.6737 Y-2.3653 Z-0.3889
G1 X2.6731 Y-2.362 Z-0.391
G1 X2.6725 Y-2.3584 Z-0.3925
G1 X2.6718 Y-2.3547 Z-0.3934
G1 X2.6711 Y-2.3508 Z-0.3937
G1 X2.6705 Y-2.3488
G1 X2.6693 Y-2.3471
G1 X2.6677 Y-2.3457
G1 X2.6658 Y-2.3448
G1 X2.6637 Y-2.3444
G1 X0.587
G1 X0.5849 Y-2.3449 Z-0.3934
G1 X0.5829 Y-2.3453 Z-0.3927
G1 X0.5811 Y-2.3457 Z-0.3916
G1 X0.5795 Y-2.346 Z-0.39
G1 X0.5784 Y-2.3463 Z-0.3882
G1 X0.5777 Y-2.3465 Z-0.3861
G1 X0.5775 Y-2.3466 Z-0.3839
G0 Z0.2
G0 X3.1569 Y-2.1758
G0 Z-0.3043
G1 Z-0.3293 F40.
G1 X3.1566 Y-2.1757 Z-0.3332
G1 X3.1557 Y-2.1754 Z-0.3371
G1 X3.1542 Y-2.175 Z-0.3407
G1 X3.1523 Y-2.1745 Z-0.344
G1 X3.1498 Y-2.1738 Z-0.347
G1 X3.1469 Y-2.173 Z-0.3496
G1 X3.1437 Y-2.1721 Z-0.3516
G1 X3.1402 Y-2.1711 Z-0.3531
G1 X3.1366 Y-2.1701 Z-0.354
G1 X3.1328 Y-2.1691 Z-0.3543
G1 X3.1307 Y-2.1688
G1 X3.1286 Y-2.1691
G1 X3.1267 Y-2.1699
G1 X3.125 Y-2.1712
G1 X3.1238 Y-2.1729
G1 X3.1221 Y-2.1764
G1 X3.1172 Y-2.1848
G1 X3.1006 Y-2.2069
G1 X3.0979 Y-2.21
G1 X3.0891 Y-2.2184
G1 X3.0754 Y-2.2292
G1 X3.0648 Y-2.2352
G1 X3.0502 Y-2.2424
G1 X3.0281 Y-2.2494
G1 X3.0079 Y-2.252
G1 X2.9998 Y-2.2525
G1 X0.004
G1 X0.0019 Y-2.2529 Z-0.3541
G1 X-0.0001 Y-2.2533 Z-0.3533
G1 X-0.0019 Y-2.2537 Z-0.3522
G1 X-0.0034 Y-2.254 Z-0.3506
G1 X-0.0046 Y-2.2543 Z-0.3488
G1 X-0.0053 Y-2.2546 Z-0.3467
G1 X-0.0055 Y-2.2547 Z-0.3445
G0 Z0.2
G0 X3.1569 Y-2.0846
G0 Z-0.265
G1 Z-0.29 F40.
G1 X3.1566 Y-2.0845 Z-0.2939
G1 X3.1557 Y-2.0843 Z-0.2977
G1 X3.1543 Y-2.0838 Z-0.3013
G1 X3.1524 Y-2.0832 Z-0.3047
G1 X3.1499 Y-2.0825 Z-0.3076
G1 X3.1471 Y-2.0816 Z-0.3102
G1 X3.1439 Y-2.0806 Z-0.3122
G1 X3.1404 Y-2.0796 Z-0.3137
G1 X3.1368 Y-2.0784 Z-0.3147
G1 X3.133 Y-2.0773 Z-0.315
G1 X3.1309 Y-2.0769
G1 X3.1288 Y-2.0772
G1 X3.1269 Y-2.078
G1 X3.1252 Y-2.0792
G1 X3.1239 Y-2.0809
G1 X3.1173 Y-2.0923
G1 X3.112 Y-2.1007
G1 X3.0986 Y-2.1176
G1 X3.0922 Y-2.1237
G1 X3.0754 Y-2.1373
G1 X3.0586 Y-2.1471
G1 X3.0502 Y-2.1506
G1 X3.0281 Y-2.1575
G1 X3.0082 Y-2.1601
G1 X2.9998 Y-2.1606
G1 X0.004
G1 X0.0019 Y-2.1611 Z-0.3147
G1 X-0.0001 Y-2.1615 Z-0.314
G1 X-0.0019 Y-2.1619 Z-0.3128
G1 X-0.0034 Y-2.1622 Z-0.3113
G1 X-0.0046 Y-2.1624 Z-0.3094
G1 X-0.0053 Y-2.1627 Z-0.3073
G1 X-0.0055 Y-2.1628 Z-0.3051
G0 Z0.2
G0 X3.1572 Y-1.9914
G0 Z-0.2256
G1 Z-0.2506 F40.
G1 X3.1569 Z-0.2545
G1 X3.156 Y-1.9911 Z-0.2583
G1 X3.1546 Y-1.9907 Z-0.2619
G1 X3.1526 Y-1.9902 Z-0.2653
G1 X3.1502 Y-1.9895 Z-0.2683
G1 X3.1473 Y-1.9887 Z-0.2708
G1 X3.1441 Y-1.9878 Z-0.2729
G1 X3.1406 Y-1.9868 Z-0.2744
G1 X3.1369 Y-1.9858 Z-0.2753
G1 X3.1331 Y-1.9848 Z-0.2756
G1 X3.131 Y-1.9845
G1 X3.1289 Y-1.9848
G1 X3.127 Y-1.9856
G1 X3.1253 Y-1.9869
G1 X3.1241 Y-1.9887
G1 X3.1174 Y-2.0009
G1 X3.109 Y-2.0132
G1 X3.099 Y-2.0251
G1 X3.0838 Y-2.0392
G1 X3.0754 Y-2.0453
G1 X3.0502 Y-2.0589
G1 X3.0418 Y-2.062
G1 X3.0334 Y-2.0643
G1 X3.025 Y-2.0661
G1 X3.0082 Y-2.0682
G1 X2.9998 Y-2.0687
G1 X0.004
G1 X0.0019 Y-2.0692 Z-0.2753
G1 X-0.0001 Y-2.0696 Z-0.2746
G1 X-0.0019 Y-2.07 Z-0.2734
G1 X-0.0034 Y-2.0703 Z-0.2719
G1 X-0.0046 Y-2.0706 Z-0.27
G1 X-0.0053 Y-2.0708 Z-0.268
G1 X-0.0055 Y-2.0709 Z-0.2658
G0 Z0.2
G0 X3.1575 Y-1.8982
G0 Z-0.1862
G1 Z-0.2112 F40.
G1 X3.1572 Z-0.2151
G1 X3.1563 Y-1.8979 Z-0.2189
G1 X3.1548 Y-1.8976 Z-0.2226
G1 X3.1528 Y-1.8971 Z-0.2259
G1 X3.1504 Y-1.8965 Z-0.2289
G1 X3.1475 Y-1.8958 Z-0.2314
G1 X3.1442 Y-1.8949 Z-0.2335
G1 X3.1407 Y-1.8941 Z-0.235
G1 X3.137 Y-1.8932 Z-0.2359
G1 X3.1332 Y-1.8922 Z-0.2362
G1 X3.1311 Y-1.892
G1 X3.129 Y-1.8923
G1 X3.1271 Y-1.8932
G1 X3.1255 Y-1.8946
G1 X3.1243 Y-1.8964
G1 X3.1208 Y-1.9033
G1 X3.1061 Y-1.9243
G1 X3.0996 Y-1.9327
G1 X3.0909 Y-1.9411
G1 X3.0808 Y-1.9495
G1 X3.0754 Y-1.9535
G1 X3.0519 Y-1.9663
G1 X3.0281 Y-1.9738
G1 X3.0082 Y-1.9764
G1 X2.9998 Y-1.9769
G1 X0.004
G1 X0.0019 Y-1.9773 Z-0.236
G1 X-0.0001 Y-1.9778 Z-0.2352
G1 X-0.0019 Y-1.9781 Z-0.2341
G1 X-0.0034 Y-1.9785 Z-0.2325
G1 X-0.0046 Y-1.9787 Z-0.2307
G1 X-0.0053 Y-1.979 Z-0.2286
G1 X-0.0055 Y-1.9791 Z-0.2264
G0 Z0.2
G0 X3.157 Y-1.8083
G0 Z-0.1469
G1 Z-0.1719 F40.
G1 X3.1567 Y-1.8082 Z-0.1758
G1 X3.1558 Y-1.8079 Z-0.1796
G1 X3.1543 Y-1.8075 Z-0.1832
G1 X3.1524 Y-1.807 Z-0.1865
G1 X3.1499 Y-1.8063 Z-0.1895
G1 X3.147 Y-1.8055 Z-0.1921
G1 X3.1438 Y-1.8047 Z-0.1941
G1 X3.1403 Y-1.8037 Z-0.1956
G1 X3.1366 Y-1.8027 Z-0.1965
G1 X3.1328 Y-1.8017 Z-0.1969
G1 X3.1307 Y-1.8014
G1 X3.1286 Y-1.8017
G1 X3.1267 Y-1.8026
G1 X3.1251 Y-1.8039
G1 X3.1238 Y-1.8056
G1 X3.1174 Y-1.817
G1 X3.113 Y-1.8235
G1 X3.0982 Y-1.8424
G1 X3.091 Y-1.8487
G1 X3.0754 Y-1.8617
G1 X3.067 Y-1.8669
G1 X3.0532 Y-1.8739
G1 X3.0274 Y-1.882
G1 X3.0082 Y-1.8845
G1 X2.9998 Y-1.885
G1 X0.004
G1 X0.0019 Y-1.8855 Z-0.1966
G1 X-0.0001 Y-1.8859 Z-0.1959
G1 X-0.0019 Y-1.8863 Z-0.1947
G1 X-0.0034 Y-1.8866 Z-0.1932
G1 X-0.0046 Y-1.8868 Z-0.1913
G1 X-0.0053 Y-1.8871 Z-0.1892
G1 X-0.0055 Y-1.8872 Z-0.187
G0 Z0.2
G0 X3.1572 Y-1.7158
G0 Z-0.1075
G1 Z-0.1325 F40.
G1 X3.1569 Y-1.7157 Z-0.1364
G1 X3.156 Y-1.7154 Z-0.1402
G1 X3.1546 Y-1.7151 Z-0.1438
G1 X3.1526 Y-1.7145 Z-0.1472
G1 X3.1501 Y-1.7139 Z-0.1502
G1 X3.1473 Y-1.7131 Z-0.1527
G1 X3.144 Y-1.7122 Z-0.1548
G1 X3.1405 Y-1.7113 Z-0.1563
G1 X3.1368 Y-1.7103 Z-0.1572
G1 X3.1331 Y-1.7093 Z-0.1575
G1 X3.131 Y-1.7091
G1 X3.1289 Y-1.7094
G1 X3.1269 Y-1.7102
G1 X3.1253 Y-1.7116
G1 X3.1241 Y-1.7133
G1 X3.109 Y-1.7376
G1 X3.1005 Y-1.7479
G1 X3.0921 Y-1.7563
G1 X3.0822 Y-1.7647
G1 X3.0754 Y-1.7698
G1 X3.0502 Y-1.7834
G1 X3.0291 Y-1.7899
G1 X3.0082 Y-1.7926
G1 X2.9998 Y-1.7931
G1 X0.004 Y-1.7932
G1 X0.0019 Y-1.7936 Z-0.1572
G1 X-0.0001 Y-1.794 Z-0.1565
G1 X-0.0019 Y-1.7944 Z-0.1553
G1 X-0.0034 Y-1.7947 Z-0.1538
G1 X-0.0046 Y-1.795 Z-0.1519
G1 X-0.0053 Y-1.7953 Z-0.1499
G1 X-0.0055 Z-0.1477
G0 Z0.2
G0 X3.1567 Y-1.6262
G0 Z-0.0681
G1 Z-0.0931 F40.
G1 X3.1564 Y-1.6261 Z-0.097
G1 X3.1556 Y-1.6258 Z-0.1008
G1 X3.1541 Y-1.6253 Z-0.1045
G1 X3.1522 Y-1.6247 Z-0.1078
G1 X3.1498 Y-1.6239 Z-0.1108
G1 X3.1469 Y-1.623 Z-0.1133
G1 X3.1438 Y-1.6219 Z-0.1154
G1 X3.1403 Y-1.6208 Z-0.1169
G1 X3.1367 Y-1.6196 Z-0.1178
G1 X3.133 Y-1.6184 Z-0.1181
G1 X3.1309 Y-1.618
G1 X3.1288 Y-1.6182
G1 X3.1268 Y-1.6189
G1 X3.1251 Y-1.6202
G1 X3.1238 Y-1.6218
G1 X3.1174 Y-1.6333
G1 X3.1141 Y-1.6386
G1 X3.1079 Y-1.647
G1 X3.1006 Y-1.656
G1 X3.079 Y-1.6755
G1 X3.0754 Y-1.6779
G1 X3.0514 Y-1.6909
G1 X3.0271 Y-1.6985
G1 X3.0082 Y-1.7008
G1 X2.9998 Y-1.7013
G1 X0.004
G1 X0.0019 Y-1.7017 Z-0.1179
G1 X-0.0001 Y-1.7022 Z-0.1171
G1 X-0.0019 Y-1.7025 Z-0.116
G1 X-0.0034 Y-1.7029 Z-0.1144
G1 X-0.0046 Y-1.7031 Z-0.1126
G1 X-0.0053 Y-1.7034 Z-0.1105
G1 X-0.0055 Y-1.7035 Z-0.1083
G0 Z0.2
G0 X3.157 Y-1.5338
G0 Z-0.0287
G1 Z-0.0537 F40.
G1 X3.1568 Y-1.5337 Z-0.0577
G1 X3.1559 Y-1.5334 Z-0.0615
G1 X3.1545 Y-1.5329 Z-0.0651
G1 X3.1525 Y-1.5323 Z-0.0684
G1 X3.1501 Y-1.5315 Z-0.0714
G1 X3.1473 Y-1.5306 Z-0.074
G1 X3.1441 Y-1.5295 Z-0.076
G1 X3.1406 Y-1.5284 Z-0.0775
G1 X3.137 Y-1.5272 Z-0.0784
G1 X3.1333 Y-1.526 Z-0.0787
G1 X3.1312 Y-1.5256
G1 X3.1291 Y-1.5258
G1 X3.1271 Y-1.5265
G1 X3.1254 Y-1.5277
G1 X3.1241 Y-1.5294
G1 X3.1174 Y-1.5416
G1 X3.0984 Y-1.5664
G1 X3.0754 Y-1.586
G1 X3.067 Y-1.5912
G1 X3.0564 Y-1.5966
G1 X3.0502 Y-1.5994
G1 X3.0278 Y-1.6064
G1 X3.0082 Y-1.6089
G1 X2.9998 Y-1.6094
G1 X0.004
G1 X0.0019 Y-1.6099 Z-0.0785
G1 X-0.0001 Y-1.6103 Z-0.0778
G1 X-0.0019 Y-1.6107 Z-0.0766
G1 X-0.0034 Y-1.611 Z-0.075
G1 X-0.0046 Y-1.6112 Z-0.0732
G1 X-0.0053 Y-1.6115 Z-0.0711
G1 X-0.0055 Y-1.6116 Z-0.0689
G0 Z0.2
G0 X3.1573 Y-1.4422
G0 Z0.0106
G1 Z-0.0144 F40.
G1 X3.157 Y-1.4421 Z-0.0183
G1 X3.1561 Y-1.4418 Z-0.0221
G1 X3.1547 Y-1.4413 Z-0.0257
G1 X3.1528 Y-1.4406 Z-0.0291
G1 X3.1504 Y-1.4397 Z-0.032
G1 X3.1476 Y-1.4387 Z-0.0346
G1 X3.1444 Y-1.4376 Z-0.0366
G1 X3.141 Y-1.4364 Z-0.0381
G1 X3.1374 Y-1.4351 Z-0.0391
G1 X3.1337 Y-1.4338 Z-0.0394
G1 X3.1317 Y-1.4333
G1 X3.1296 Y-1.4335
G1 X3.1276 Y-1.4342
G1 X3.1258 Y-1.4354
G1 X3.1245 Y-1.437
G1 X3.1146 Y-1.4538
G1 X3.1086 Y-1.4622
G1 X3.1006 Y-1.4721
G1 X3.0922 Y-1.4808
G1 X3.0754 Y-1.4942
G1 X3.054 Y-1.5062
G1 X3.0281 Y-1.5145
G1 X3.0082 Y-1.517
G1 X2.9998 Y-1.5175
G1 X0.004 Y-1.5176
G1 X0.0019 Y-1.518 Z-0.0391
G1 X-0.0001 Y-1.5184 Z-0.0384
G1 X-0.0019 Y-1.5188 Z-0.0372
G1 X-0.0034 Y-1.5191 Z-0.0357
G1 X-0.0046 Y-1.5194 Z-0.0338
G1 X-0.0053 Y-1.5197 Z-0.0317
G1 X-0.0055 Y-1.5198 Z-0.0296
G0 Z0.2
G0 X-0.1569 Y-0.9198
G0 Z-0.6587
G1 Z-0.6837 F40.
G1 X-0.1566 Y-0.9199 Z-0.6876
G1 X-0.1558 Y-0.9202 Z-0.6914
G1 X-0.1543 Y-0.9207 Z-0.695
G1 X-0.1524 Y-0.9214 Z-0.6984
G1 X-0.15 Y-0.9223 Z-0.7013
G1 X-0.1472 Y-0.9233 Z-0.7039
G1 X-0.1441 Y-0.9245 Z-0.7059
G1 X-0.1407 Y-0.9257 Z-0.7074
G1 X-0.1371 Y-0.927 Z-0.7084
G1 X-0.1334 Y-0.9284 Z-0.7087
G1 X-0.1314 Y-0.9288
G1 X-0.1292 Y-0.9287
G1 X-0.1272 Y-0.928
G1 X-0.1255 Y-0.9268
G1 X-0.1241 Y-0.9252
G1 X-0.1174 Y-0.915
G1 X-0.109 Y-0.9045
G1 X-0.1006 Y-0.8956
G1 X-0.0959 Y-0.8908
G1 X-0.0893 Y-0.8827
G1 X-0.0821 Y-0.8724
G1 X-0.0743 Y-0.8591
G1 X-0.0661 Y-0.842
G1 X-0.0574 Y-0.8195
G1 X-0.0484 Y-0.7889
G1 X-0.0408 Y-0.7527
G1 X-0.0356 Y-0.716
G1 X-0.032 Y-0.6792
G1 X-0.0295 Y-0.6423
G1 X-0.0277 Y-0.6053
G1 X-0.0257 Y-0.5313
G1 X-0.0245 Y-0.4368
G1 X-0.0255 Y-0.4256
G1 X-0.0286 Y-0.4148
G1 X-0.0336 Y-0.4047
G1 X-0.0405 Y-0.3957
G1 X-0.0489 Y-0.3882
G1 X-0.0586 Y-0.3825
G3 X-0.0934 Y-0.4029 I-0.01 J-0.0229
G1 X-0.1413 Y-0.8738
G3 X-0.1006 Y-0.8956 I0.0249 J-0.0025
G1 X-0.0922 Y-0.8882
G1 X-0.0838 Y-0.8818
G1 X-0.0754 Y-0.8762
G1 X-0.067 Y-0.8715
G1 X-0.0543 Y-0.8656
G1 X-0.0488 Y-0.8632
G1 X-0.0421 Y-0.8596
G1 X-0.0352 Y-0.8551
G1 X-0.0273 Y-0.849
G1 X-0.0188 Y-0.8412
G1 X-0.0102 Y-0.8321
G1 X-0.0007 Y-0.8201
G1 X0.0087 Y-0.8061
G1 X0.0189 Y-0.7879
G1 X0.0291 Y-0.7657
G1 X0.0397 Y-0.7369
G1 X0.0495 Y-0.7013
G1 X0.0568 Y-0.665
G1 X0.062 Y-0.6283
G1 X0.0659 Y-0.5915
G1 X0.0687 Y-0.5546
G1 X0.0708 Y-0.5177
G1 Y-0.4885
G1 X0.0689 Y-0.466
G1 X0.0659 Y-0.4475
G1 X0.0639 Y-0.4393
G1 X0.0595 Y-0.4273
G1 X0.0525 Y-0.4165
G1 X0.0434 Y-0.4074
G1 X0.0324 Y-0.4006
G1 X0.0203 Y-0.3964
G1 X0.0075 Y-0.3949
G1 X0.0035
G3 X-0.0204 Y-0.4161 I0.0008 J-0.025
G1 X-0.0861 Y-0.8378
G3 X-0.0543 Y-0.8656 I0.0247 J-0.0038
G1 X-0.0334 Y-0.8593
G1 X-0.0241 Y-0.8572
G1 X-0.0082 Y-0.8553
G1 X-0.0068
G1 X-0.0014 Y-0.8549
G1 X0.0051 Y-0.8536
G1 X0.0117 Y-0.8518
G1 X0.0194 Y-0.8491
G1 X0.0277 Y-0.8453
G1 X0.0363 Y-0.8405
G1 X0.0462 Y-0.8339
G1 X0.0558 Y-0.8263
G1 X0.0664 Y-0.8165
G1 X0.0777 Y-0.8043
G1 X0.0888 Y-0.79
G1 X0.1006 Y-0.772
G1 X0.1125 Y-0.7502
G1 X0.1245 Y-0.7235
G1 X0.1367 Y-0.6892
G1 X0.1462 Y-0.6534
G1 X0.1535 Y-0.6172
G1 X0.1588 Y-0.5805
G1 X0.1619 Y-0.5437
G1 X0.1622 Y-0.513
G1 X0.1605 Y-0.4882
G1 X0.1575 Y-0.4682
G1 X0.1535 Y-0.4513
G1 X0.1484 Y-0.4354
G1 X0.1466 Y-0.4311
G1 X0.1412 Y-0.421
G1 X0.134 Y-0.4121
G1 X0.1251 Y-0.4049
G1 X0.115 Y-0.3995
G1 X0.1041 Y-0.3961
G1 X0.0927 Y-0.395
G1 X0.0075 Y-0.3949
G3 X-0.0167 Y-0.419 I0.0008 J-0.025
G1 X-0.0315 Y-0.8294
G3 X-0.0068 Y-0.8553 I0.025 J-0.0009
G1 X0.059 Y-0.855
G1 X0.0651 Y-0.8547
G1 X0.0722 Y-0.8538
G1 X0.0805 Y-0.852
G1 X0.0891 Y-0.8494
G1 X0.0986 Y-0.8457
G1 X0.1089 Y-0.8407
G1 X0.1196 Y-0.8344
G1 X0.1314 Y-0.8261
G1 X0.143 Y-0.8165
G1 X0.1562 Y-0.8036
G1 X0.1687 Y-0.7893
G1 X0.1824 Y-0.7708
G1 X0.1956 Y-0.7497
G1 X0.209 Y-0.7235
G1 X0.2222 Y-0.692
G1 X0.2337 Y-0.6569
G1 X0.2424 Y-0.6209
G1 X0.2484 Y-0.5845
G1 X0.2512 Y-0.5503
G1 Y-0.5186
G1 X0.2492 Y-0.4926
G1 X0.2456 Y-0.4704
G1 X0.2412 Y-0.4521
G1 X0.236 Y-0.4364
G1 X0.2335 Y-0.4306
G1 X0.2281 Y-0.4206
G1 X0.2208 Y-0.4119
G1 X0.212 Y-0.4047
G1 X0.202 Y-0.3994
G1 X0.1911 Y-0.3961
G1 X0.1798 Y-0.395
G1 X0.0927
G3 X0.0686 Y-0.4179 I0.0009 J-0.025
G1 X0.035 Y-0.828
G3 X0.059 Y-0.855 I0.0249 J-0.002
G1 X0.1347
G1 X0.1447 Y-0.8545
G1 X0.1526 Y-0.8535
G1 X0.1618 Y-0.8515
G1 X0.1711 Y-0.8487
G1 X0.1819 Y-0.8445
G1 X0.1927 Y-0.8393
G1 X0.2048 Y-0.8321
G1 X0.2172 Y-0.8234
G1 X0.2305 Y-0.8124
G1 X0.2442 Y-0.7991
G1 X0.2584 Y-0.7827
G1 X0.2725 Y-0.7637
G1 X0.2871 Y-0.7402
G1 X0.3004 Y-0.7145
G1 X0.3127 Y-0.6851
G1 X0.3233 Y-0.6524
G1 X0.3316 Y-0.6179
G1 X0.337 Y-0.5834
G1 X0.3395 Y-0.55
G1 X0.3393 Y-0.5186
G1 X0.3371 Y-0.4923
G1 X0.3333 Y-0.4699
G1 X0.3286 Y-0.4514
G1 X0.3233 Y-0.4356
G1 X0.3209 Y-0.4302
G1 X0.3155 Y-0.4203
G1 X0.3082 Y-0.4117
G1 X0.2994 Y-0.4046
G1 X0.2894 Y-0.3993
G1 X0.2786 Y-0.3961
G1 X0.2674 Y-0.395
G1 X0.1798
G3 X0.1558 Y-0.4173 I0.0009 J-0.025
G1 X0.1107 Y-0.8273
G3 X0.1347 Y-0.855 I0.0248 J-0.0027
G1 X0.2187
G1 X0.2293 Y-0.8545
G1 X0.2375 Y-0.8534
G1 X0.2469 Y-0.8514
G1 X0.257 Y-0.8484
G1 X0.2678 Y-0.8441
G1 X0.2799 Y-0.8383
G1 X0.292 Y-0.8311
G1 X0.3055 Y-0.8217
G1 X0.3188 Y-0.8106
G1 X0.3332 Y-0.7966
G1 X0.3474 Y-0.7803
G1 X0.3617 Y-0.761
G1 X0.3762 Y-0.7376
G1 X0.3892 Y-0.7125
G1 X0.4012 Y-0.6838
G1 X0.4116 Y-0.652
G1 X0.4197 Y-0.6182
G1 X0.425 Y-0.5842
G1 X0.4275 Y-0.5511
G1 X0.4273 Y-0.5197
G1 X0.425 Y-0.4928
G1 X0.4212 Y-0.4702
G1 X0.4165 Y-0.4517
G1 X0.4111 Y-0.4358
G1 X0.4087 Y-0.4302
G1 X0.4032 Y-0.4203
G1 X0.396 Y-0.4117
G1 X0.3872 Y-0.4046
G1 X0.3772 Y-0.3993
G1 X0.3664 Y-0.3961
G1 X0.3551 Y-0.395
G1 X0.2674
G3 X0.2434 Y-0.417 I0.0009 J-0.025
G1 X0.1947 Y-0.8271
G3 X0.2187 Y-0.855 I0.0248 J-0.0029
G1 X0.3073
G1 X0.3161 Y-0.8546
G1 X0.3247 Y-0.8534
G1 X0.3341 Y-0.8514
G1 X0.3446 Y-0.8483
G1 X0.3554 Y-0.8441
G1 X0.3677 Y-0.8381
G1 X0.38 Y-0.8309
G1 X0.3936 Y-0.8213
G1 X0.407 Y-0.8102
G1 X0.4214 Y-0.7961
G1 X0.4357 Y-0.7797
G1 X0.4499 Y-0.7605
G1 X0.4644 Y-0.7372
G1 X0.4774 Y-0.7122
G1 X0.4892 Y-0.6837
G1 X0.4995 Y-0.6522
G1 X0.5076 Y-0.6186
G1 X0.5129 Y-0.5847
G1 X0.5154 Y-0.5515
G1 X0.5152 Y-0.5201
G1 X0.5129 Y-0.4931
G1 X0.509 Y-0.4704
G1 X0.5044 Y-0.4519
G1 X0.4989 Y-0.4359
G1 X0.4965 Y-0.4302
G1 X0.4911 Y-0.4203
G1 X0.4838 Y-0.4117
G1 X0.475 Y-0.4046
G1 X0.465 Y-0.3993
G1 X0.4542 Y-0.3961
G1 X0.443 Y-0.395
G1 X0.3551
G3 X0.3312 Y-0.4171 I0.0009 J-0.025
G1 X0.2834 Y-0.8271
G3 X0.3073 Y-0.855 I0.0248 J-0.0029
G1 X0.3951
G1 X0.4039 Y-0.8546
G1 X0.4126 Y-0.8534
G1 X0.422 Y-0.8514
G1 X0.4325 Y-0.8482
G1 X0.4434 Y-0.844
G1 X0.4557 Y-0.838
G1 X0.468 Y-0.8308
G1 X0.4817 Y-0.8212
G1 X0.4951 Y-0.8101
G1 X0.5095 Y-0.796
G1 X0.5238 Y-0.7796
G1 X0.5379 Y-0.7605
G1 X0.5524 Y-0.7373
G1 X0.5653 Y-0.7122
G1 X0.5772 Y-0.6839
G1 X0.5874 Y-0.6524
G1 X0.5955 Y-0.6189
G1 X0.6008 Y-0.5849
G1 X0.6033 Y-0.5517
G1 X0.6031 Y-0.5203
G1 X0.6007 Y-0.4932
G1 X0.5969 Y-0.4705
G1 X0.5922 Y-0.4519
G1 X0.5868 Y-0.4359
G1 X0.5844 Y-0.4302
G1 X0.5789 Y-0.4203
G1 X0.5716 Y-0.4117
G1 X0.5629 Y-0.4046
G1 X0.5529 Y-0.3993
G1 X0.542 Y-0.3961
G1 X0.5308 Y-0.395
G1 X0.443
G3 X0.419 Y-0.4171 I0.0009 J-0.025
G1 X0.3712 Y-0.8271
G3 X0.3951 Y-0.855 I0.0248 J-0.0029
G1 X0.4838
G1 X0.4918 Y-0.8546
G1 X0.5005 Y-0.8535
G1 X0.5099 Y-0.8514
G1 X0.5205 Y-0.8483
G1 X0.5313 Y-0.8441
G1 X0.5437 Y-0.8381
G1 X0.5559 Y-0.8309
G1 X0.5697 Y-0.8212
G1 X0.583 Y-0.8101
G1 X0.5974 Y-0.7961
G1 X0.6117 Y-0.7797
G1 X0.6259 Y-0.7606
G1 X0.6403 Y-0.7374
G1 X0.6532 Y-0.7123
G1 X0.6651 Y-0.684
G1 X0.6753 Y-0.6526
G1 X0.6834 Y-0.6191
G1 X0.6887 Y-0.5851
G1 X0.6911 Y-0.5519
G1 X0.691 Y-0.5204
G1 X0.6886 Y-0.4933
G1 X0.6848 Y-0.4705
G1 X0.6801 Y-0.452
G1 X0.6747 Y-0.4359
G1 X0.6722 Y-0.4302
G1 X0.6668 Y-0.4203
G1 X0.6595 Y-0.4117
G1 X0.6507 Y-0.4046
G1 X0.6407 Y-0.3993
G1 X0.6299 Y-0.3961
G1 X0.6187 Y-0.395
G1 X0.5308
G3 X0.5068 Y-0.4171 I0.0009 J-0.025
G1 X0.4598 Y-0.8272
G3 X0.4838 Y-0.855 I0.0248 J-0.0028
G1 X0.5716
G1 X0.5798 Y-0.8546
G1 X0.5885 Y-0.8534
G1 X0.5979 Y-0.8514
G1 X0.6085 Y-0.8483
G1 X0.6193 Y-0.8441
G1 X0.6317 Y-0.8381
G1 X0.6439 Y-0.8309
G1 X0.6576 Y-0.8212
G1 X0.671 Y-0.8101
G1 X0.6854 Y-0.7961
G1 X0.6997 Y-0.7797
G1 X0.7138 Y-0.7606
G1 X0.7282 Y-0.7374
G1 X0.7411 Y-0.7124
G1 X0.7529 Y-0.6841
G1 X0.7632 Y-0.6527
G1 X0.7712 Y-0.6192
G1 X0.7766 Y-0.5852
G1 X0.779 Y-0.552
G1 X0.7789 Y-0.5205
G1 X0.7765 Y-0.4933
G1 X0.7727 Y-0.4705
G1 X0.768 Y-0.452
G1 X0.7626 Y-0.4359
G1 X0.7601 Y-0.4302
G1 X0.7546 Y-0.4203
G1 X0.7474 Y-0.4117
G1 X0.7386 Y-0.4046
G1 X0.7286 Y-0.3993
G1 X0.7178 Y-0.3961
G1 X0.7065 Y-0.395
G1 X0.6187
G3 X0.5947 Y-0.4171 I0.0009 J-0.025
G1 X0.5476 Y-0.8272
G3 X0.5716 Y-0.855 I0.0248 J-0.0029
G1 X0.6556
G1 X0.668 Y-0.8544
G1 X0.6766 Y-0.8532
G1 X0.686 Y-0.8512
G1 X0.6966 Y-0.8481
G1 X0.7074 Y-0.8439
G1 X0.7197 Y-0.8379
G1 X0.7319 Y-0.8307
G1 X0.7456 Y-0.8211
G1 X0.759 Y-0.81
G1 X0.7733 Y-0.796
G1 X0.7876 Y-0.7796
G1 X0.8017 Y-0.7605
G1 X0.8161 Y-0.7374
G1 X0.829 Y-0.7124
G1 X0.8408 Y-0.6841
G1 X0.8511 Y-0.6527
G1 X0.8591 Y-0.6192
G1 X0.8644 Y-0.5852
G1 X0.8669 Y-0.552
G1 X0.8667 Y-0.5205
G1 X0.8644 Y-0.4934
G1 X0.8606 Y-0.4705
G1 X0.8559 Y-0.452
G1 X0.8505 Y-0.4359
G1 X0.848 Y-0.4302
G1 X0.8425 Y-0.4203
G1 X0.8353 Y-0.4117
G1 X0.8265 Y-0.4046
G1 X0.8165 Y-0.3993
G1 X0.8057 Y-0.3961
G1 X0.7944 Y-0.395
G1 X0.7065
G3 X0.6826 Y-0.4169 I0.0009 J-0.025
G1 X0.6317 Y-0.8269
G3 X0.6556 Y-0.855 I0.0248 J-0.0031
G1 X0.748
G1 X0.7556 Y-0.8546
G1 X0.7643 Y-0.8535
G1 X0.7737 Y-0.8515
G1 X0.7843 Y-0.8483
G1 X0.7951 Y-0.8441
G1 X0.8075 Y-0.8381
G1 X0.8197 Y-0.8309
G1 X0.8334 Y-0.8213
G1 X0.8468 Y-0.8102
G1 X0.8612 Y-0.7961
G1 X0.8755 Y-0.7798
G1 X0.8896 Y-0.7607
G1 X0.904 Y-0.7375
G1 X0.9169 Y-0.7125
G1 X0.9287 Y-0.6842
G1 X0.939 Y-0.6528
G1 X0.947 Y-0.6193
G1 X0.9523 Y-0.5853
G1 X0.9548 Y-0.552
G1 X0.9546 Y-0.5205
G1 X0.9523 Y-0.4934
G1 X0.9485 Y-0.4706
G1 X0.9438 Y-0.452
G1 X0.9384 Y-0.436
G1 X0.9359 Y-0.4302
G1 X0.9304 Y-0.4203
G1 X0.9232 Y-0.4117
G1 X0.9144 Y-0.4046
G1 X0.9044 Y-0.3993
G1 X0.8936 Y-0.3961
G1 X0.8823 Y-0.395
G1 X0.7944
G3 X0.7705 Y-0.4172 I0.0009 J-0.025
G1 X0.724 Y-0.8272
G3 X0.748 Y-0.855 I0.0248 J-0.0028
G1 X0.832
G1 X0.8438 Y-0.8544
G1 X0.8524 Y-0.8533
G1 X0.8618 Y-0.8513
G1 X0.8724 Y-0.8481
G1 X0.8832 Y-0.8439
G1 X0.8955 Y-0.8379
G1 X0.9078 Y-0.8307
G1 X0.9214 Y-0.8211
G1 X0.9348 Y-0.81
G1 X0.9491 Y-0.796
G1 X0.9634 Y-0.7797
G1 X0.9775 Y-0.7606
G1 X0.9919 Y-0.7375
G1 X1.0048 Y-0.7124
G1 X1.0166 Y-0.6842
G1 X1.0269 Y-0.6528
G1 X1.0349 Y-0.6193
G1 X1.0402 Y-0.5853
G1 X1.0427 Y-0.552
G1 X1.0425 Y-0.5205
G1 X1.0402 Y-0.4934
G1 X1.0364 Y-0.4706
G1 X1.0317 Y-0.452
G1 X1.0262 Y-0.436
G1 X1.0238 Y-0.4302
G1 X1.0183 Y-0.4203
G1 X1.011 Y-0.4117
G1 X1.0023 Y-0.4046
G1 X0.9923 Y-0.3993
G1 X0.9814 Y-0.3961
G1 X0.9702 Y-0.395
G1 X0.8823
G3 X0.8584 Y-0.4169 I0.0009 J-0.025
G1 X0.8081 Y-0.827
G3 X0.832 Y-0.855 I0.0248 J-0.003
G1 X0.9245
G1 X0.9315 Y-0.8546
G1 X0.9401 Y-0.8535
G1 X0.9495 Y-0.8515
G1 X0.9601 Y-0.8483
G1 X0.9709 Y-0.8441
G1 X0.9833 Y-0.8381
G1 X0.9955 Y-0.8309
G1 X1.0092 Y-0.8213
G1 X1.0226 Y-0.8102
G1 X1.037 Y-0.7962
G1 X1.0513 Y-0.7798
G1 X1.0654 Y-0.7607
G1 X1.0798 Y-0.7376
G1 X1.0927 Y-0.7125
G1 X1.1045 Y-0.6843
G1 X1.1148 Y-0.6528
G1 X1.1228 Y-0.6193
G1 X1.1281 Y-0.5853
G1 X1.1306 Y-0.5521
G1 X1.1304 Y-0.5205
G1 X1.1281 Y-0.4934
G1 X1.1243 Y-0.4706
G1 X1.1196 Y-0.452
G1 X1.1141 Y-0.436
G1 X1.1117 Y-0.4302
G1 X1.1062 Y-0.4203
G1 X1.0989 Y-0.4117
G1 X1.0901 Y-0.4046
G1 X1.0802 Y-0.3993
G1 X1.0693 Y-0.3961
G1 X1.0581 Y-0.395
G1 X0.9702
G3 X0.9462 Y-0.4172 I0.0009 J-0.025
G1 X0.9005 Y-0.8272
G3 X0.9245 Y-0.855 I0.0248 J-0.0028
G1 X1.0085
G1 X1.0196 Y-0.8544
G1 X1.0282 Y-0.8533
G1 X1.0376 Y-0.8513
G1 X1.0482 Y-0.8481
G1 X1.059 Y-0.8439
G1 X1.0713 Y-0.8379
G1 X1.0836 Y-0.8308
G1 X1.0972 Y-0.8211
G1 X1.1106 Y-0.8101
G1 X1.1249 Y-0.7961
G1 X1.1392 Y-0.7797
G1 X1.1533 Y-0.7606
G1 X1.1677 Y-0.7375
G1 X1.1806 Y-0.7125
G1 X1.1924 Y-0.6842
G1 X1.2027 Y-0.6528
G1 X1.2107 Y-0.6193
G1 X1.216 Y-0.5853
G1 X1.2185 Y-0.5521
G1 X1.2183 Y-0.5206
G1 X1.216 Y-0.4934
G1 X1.2122 Y-0.4706
G1 X1.2075 Y-0.452
G1 X1.202 Y-0.436
G1 X1.1996 Y-0.4302
G1 X1.1941 Y-0.4203
G1 X1.1868 Y-0.4117
G1 X1.178 Y-0.4046
G1 X1.1681 Y-0.3993
G1 X1.1572 Y-0.3961
G1 X1.146 Y-0.395
G1 X1.0581
G3 X1.0342 Y-0.417 I0.0009 J-0.025
G1 X0.9845 Y-0.827
G3 X1.0085 Y-0.855 I0.0248 J-0.003
G1 X1.1009
G1 X1.1072 Y-0.8547
G1 X1.1159 Y-0.8535
G1 X1.1253 Y-0.8515
G1 X1.1359 Y-0.8484
G1 X1.1467 Y-0.8441
G1 X1.1591 Y-0.8381
G1 X1.1713 Y-0.8309
G1 X1.185 Y-0.8213
G1 X1.1984 Y-0.8102
G1 X1.2128 Y-0.7962
G1 X1.2271 Y-0.7798
G1 X1.2412 Y-0.7607
G1 X1.2556 Y-0.7376
G1 X1.2685 Y-0.7126
G1 X1.2803 Y-0.6843
G1 X1.2906 Y-0.6529
G1 X1.2986 Y-0.6194
G1 X1.3039 Y-0.5854
G1 X1.3064 Y-0.5521
G1 X1.3062 Y-0.5206
G1 X1.3039 Y-0.4934
G1 X1.3 Y-0.4706
G1 X1.2954 Y-0.452
G1 X1.2899 Y-0.436
G1 X1.2874 Y-0.4302
G1 X1.282 Y-0.4203
G1 X1.2747 Y-0.4117
G1 X1.2659 Y-0.4046
G1 X1.2559 Y-0.3993
G1 X1.2451 Y-0.3961
G1 X1.2339 Y-0.395
G1 X1.146
G3 X1.122 Y-0.4173 I0.0009 J-0.025
G1 X1.0769 Y-0.8273
G3 X1.1009 Y-0.855 I0.0249 J-0.0027
G1 X1.1849
G1 X1.1954 Y-0.8545
G1 X1.204 Y-0.8533
G1 X1.2134 Y-0.8513
G1 X1.224 Y-0.8482
G1 X1.2348 Y-0.844
G1 X1.2471 Y-0.838
G1 X1.2593 Y-0.8308
G1 X1.273 Y-0.8212
G1 X1.2864 Y-0.8101
G1 X1.3007 Y-0.7961
G1 X1.315 Y-0.7797
G1 X1.3291 Y-0.7607
G1 X1.3435 Y-0.7375
G1 X1.3564 Y-0.7125
G1 X1.3682 Y-0.6843
G1 X1.3785 Y-0.6529
G1 X1.3865 Y-0.6194
G1 X1.3918 Y-0.5853
G1 X1.3943 Y-0.5521
G1 X1.3941 Y-0.5206
G1 X1.3918 Y-0.4934
G1 X1.3879 Y-0.4706
G1 X1.3833 Y-0.452
G1 X1.3778 Y-0.436
G1 X1.3753 Y-0.4302
G1 X1.3699 Y-0.4203
G1 X1.3626 Y-0.4117
G1 X1.3538 Y-0.4046
G1 X1.3438 Y-0.3993
G1 X1.333 Y-0.3961
G1 X1.3218 Y-0.395
G1 X1.2339
G3 X1.2099 Y-0.417 I0.0009 J-0.025
G1 X1.161 Y-0.8271
G3 X1.1849 Y-0.855 I0.0248 J-0.003
G1 X1.2773
G1 X1.283 Y-0.8547
G1 X1.2917 Y-0.8536
G1 X1.3011 Y-0.8516
G1 X1.3117 Y-0.8484
G1 X1.3225 Y-0.8442
G1 X1.3349 Y-0.8382
G1 X1.3471 Y-0.831
G1 X1.3608 Y-0.8214
G1 X1.3742 Y-0.8103
G1 X1.3886 Y-0.7962
G1 X1.4028 Y-0.7799
G1 X1.417 Y-0.7608
G1 X1.4314 Y-0.7376
G1 X1.4443 Y-0.7126
G1 X1.4561 Y-0.6843
G1 X1.4664 Y-0.6529
G1 X1.4744 Y-0.6194
G1 X1.4797 Y-0.5854
G1 X1.4822 Y-0.5521
G1 X1.482 Y-0.5206
G1 X1.4797 Y-0.4934
G1 X1.4758 Y-0.4706
G1 X1.4712 Y-0.452
G1 X1.4657 Y-0.436
G1 X1.4632 Y-0.4302
G1 X1.4578 Y-0.4203
G1 X1.4505 Y-0.4117
G1 X1.4417 Y-0.4046
G1 X1.4317 Y-0.3993
G1 X1.4209 Y-0.3961
G1 X1.4097 Y-0.395
G1 X1.3218
G3 X1.2978 Y-0.4173 I0.0009 J-0.025
G1 X1.2534 Y-0.8273
G3 X1.2773 Y-0.855 I0.0249 J-0.0027
G1 X1.3614
G1 X1.3712 Y-0.8545
G1 X1.3798 Y-0.8534
G1 X1.3892 Y-0.8514
G1 X1.3998 Y-0.8482
G1 X1.4106 Y-0.844
G1 X1.4229 Y-0.838
G1 X1.4351 Y-0.8308
G1 X1.4488 Y-0.8212
G1 X1.4622 Y-0.8101
G1 X1.4765 Y-0.7961
G1 X1.4908 Y-0.7798
G1 X1.5049 Y-0.7607
G1 X1.5193 Y-0.7376
G1 X1.5322 Y-0.7125
G1 X1.544 Y-0.6843
G1 X1.5543 Y-0.6529
G1 X1.5623 Y-0.6194
G1 X1.5676 Y-0.5854
G1 X1.5701 Y-0.5521
G1 X1.5699 Y-0.5206
G1 X1.5676 Y-0.4934
G1 X1.5637 Y-0.4706
G1 X1.5591 Y-0.452
G1 X1.5536 Y-0.436
G1 X1.5511 Y-0.4302
G1 X1.5457 Y-0.4203
G1 X1.5384 Y-0.4117
G1 X1.5296 Y-0.4046
G1 X1.5196 Y-0.3993
G1 X1.5088 Y-0.3961
G1 X1.4976 Y-0.395
G1 X1.4097
G3 X1.3857 Y-0.4171 I0.0009 J-0.025
G1 X1.3374 Y-0.8271
G3 X1.3614 Y-0.855 I0.0248 J-0.0029
G1 X1.4538
G1 X1.4592 Y-0.8547
G1 X1.4679 Y-0.8536
G1 X1.4773 Y-0.8515
G1 X1.4879 Y-0.8483
G1 X1.4988 Y-0.844
G1 X1.5112 Y-0.838
G1 X1.5235 Y-0.8307
G1 X1.5371 Y-0.821
G1 X1.5506 Y-0.8098
G1 X1.5649 Y-0.7957
G1 X1.5793 Y-0.7791
G1 X1.5933 Y-0.76
G1 X1.6077 Y-0.7367
G1 X1.6207 Y-0.7114
G1 X1.6324 Y-0.6831
G1 X1.6425 Y-0.6516
G1 X1.6505 Y-0.6181
G1 X1.6557 Y-0.584
G1 X1.658 Y-0.5507
G1 X1.6578 Y-0.5192
G1 X1.6554 Y-0.4925
G1 X1.6515 Y-0.4698
G1 X1.6467 Y-0.4513
G1 X1.6413 Y-0.4354
G1 X1.639 Y-0.43
G1 X1.6335 Y-0.4202
G1 X1.6262 Y-0.4116
G1 X1.6175 Y-0.4045
G1 X1.6075 Y-0.3993
G1 X1.5967 Y-0.3961
G1 X1.5855 Y-0.395
G1 X1.4976
G3 X1.4736 Y-0.4173 I0.0009 J-0.025
G1 X1.4298 Y-0.8274
G3 X1.4538 Y-0.855 I0.0249 J-0.0027
G1 X1.5378
G1 X1.5469 Y-0.8545
G1 X1.5557 Y-0.8534
G1 X1.565 Y-0.8514
G1 X1.5756 Y-0.8482
G1 X1.5864 Y-0.844
G1 X1.5987 Y-0.838
G1 X1.6109 Y-0.8309
G1 X1.6246 Y-0.8212
G1 X1.6379 Y-0.8102
G1 X1.6524 Y-0.7961
G1 X1.6665 Y-0.7799
G1 X1.6807 Y-0.7607
G1 X1.6951 Y-0.7376
G1 X1.7079 Y-0.7127
G1 X1.7198 Y-0.6843
G1 X1.7301 Y-0.6528
G1 X1.7381 Y-0.6193
G1 X1.7434 Y-0.5854
G1 X1.7459 Y-0.5522
G1 X1.7457 Y-0.5207
G1 X1.7434 Y-0.4934
G1 X1.7395 Y-0.4706
G1 X1.7349 Y-0.452
G1 X1.7294 Y-0.4359
G1 X1.7269 Y-0.4302
G1 X1.7215 Y-0.4203
G1 X1.7142 Y-0.4117
G1 X1.7054 Y-0.4046
G1 X1.6954 Y-0.3993
G1 X1.6846 Y-0.3961
G1 X1.6734 Y-0.395
G1 X1.5855
G3 X1.5615 Y-0.4171 I0.0009 J-0.025
G1 X1.5138 Y-0.8271
G3 X1.5378 Y-0.855 I0.0248 J-0.0029
G1 X1.6265
G1 X1.6348 Y-0.8546
G1 X1.6435 Y-0.8534
G1 X1.6529 Y-0.8514
G1 X1.6634 Y-0.8483
G1 X1.6742 Y-0.8441
G1 X1.6866 Y-0.8381
G1 X1.6988 Y-0.8309
G1 X1.7125 Y-0.8213
G1 X1.7258 Y-0.8102
G1 X1.7402 Y-0.7962
G1 X1.7545 Y-0.7798
G1 X1.7686 Y-0.7607
G1 X1.783 Y-0.7376
G1 X1.7959 Y-0.7125
G1 X1.8077 Y-0.6843
G1 X1.818 Y-0.6529
G1 X1.826 Y-0.6194
G1 X1.8313 Y-0.5854
G1 X1.8338 Y-0.5521
G1 X1.8336 Y-0.5206
G1 X1.8313 Y-0.4934
G1 X1.8274 Y-0.4706
G1 X1.8228 Y-0.452
G1 X1.8173 Y-0.436
G1 X1.8148 Y-0.4302
G1 X1.8094 Y-0.4203
G1 X1.8021 Y-0.4117
G1 X1.7933 Y-0.4046
G1 X1.7833 Y-0.3993
G1 X1.7725 Y-0.3961
G1 X1.7613 Y-0.395
G1 X1.6734
G3 X1.6494 Y-0.4171 I0.0009 J-0.025
G1 X1.6025 Y-0.8272
G3 X1.6265 Y-0.855 I0.0248 J-0.0028
G1 X1.7143
G1 X1.7227 Y-0.8546
G1 X1.7314 Y-0.8534
G1 X1.7408 Y-0.8514
G1 X1.7513 Y-0.8483
G1 X1.7621 Y-0.8441
G1 X1.7745 Y-0.8381
G1 X1.7867 Y-0.8309
G1 X1.8004 Y-0.8213
G1 X1.8137 Y-0.8102
G1 X1.8281 Y-0.7962
G1 X1.8424 Y-0.7798
G1 X1.8565 Y-0.7607
G1 X1.8709 Y-0.7376
G1 X1.8838 Y-0.7125
G1 X1.8956 Y-0.6843
G1 X1.9059 Y-0.6529
G1 X1.9139 Y-0.6194
G1 X1.9192 Y-0.5854
G1 X1.9217 Y-0.5521
G1 X1.9215 Y-0.5206
G1 X1.9192 Y-0.4934
G1 X1.9153 Y-0.4706
G1 X1.9107 Y-0.452
G1 X1.9052 Y-0.436
G1 X1.9027 Y-0.4302
G1 X1.8973 Y-0.4203
G1 X1.89 Y-0.4117
G1 X1.8812 Y-0.4046
G1 X1.8712 Y-0.3993
G1 X1.8604 Y-0.3961
G1 X1.8492 Y-0.395
G1 X1.7613
G3 X1.7373 Y-0.4171 I0.0009 J-0.025
G1 X1.6903 Y-0.8272
G3 X1.7143 Y-0.855 I0.0248 J-0.0028
G1 X1.8029
G1 X1.8106 Y-0.8546
G1 X1.8192 Y-0.8535
G1 X1.8286 Y-0.8515
G1 X1.8392 Y-0.8483
G1 X1.85 Y-0.8441
G1 X1.8624 Y-0.8381
G1 X1.8746 Y-0.8309
G1 X1.8883 Y-0.8213
G1 X1.9016 Y-0.8102
G1 X1.916 Y-0.7962
G1 X1.9303 Y-0.7798
G1 X1.9444 Y-0.7607
G1 X1.9588 Y-0.7376
G1 X1.9717 Y-0.7126
G1 X1.9835 Y-0.6843
G1 X1.9938 Y-0.6529
G1 X2.0018 Y-0.6194
G1 X2.0071 Y-0.5854
G1 X2.0096 Y-0.5521
G1 X2.0094 Y-0.5206
G1 X2.0071 Y-0.4934
G1 X2.0032 Y-0.4706
G1 X1.9986 Y-0.452
G1 X1.9931 Y-0.436
G1 X1.9906 Y-0.4302
G1 X1.9852 Y-0.4203
G1 X1.9779 Y-0.4117
G1 X1.9691 Y-0.4046
G1 X1.9591 Y-0.3993
G1 X1.9483 Y-0.3961
G1 X1.9371 Y-0.395
G1 X1.8492
G3 X1.8252 Y-0.4172 I0.0009 J-0.025
G1 X1.7789 Y-0.8272
G3 X1.8029 Y-0.855 I0.0248 J-0.0028
G1 X1.8907
G1 X1.8985 Y-0.8546
G1 X1.9071 Y-0.8535
G1 X1.9165 Y-0.8515
G1 X1.9271 Y-0.8483
G1 X1.9379 Y-0.8441
G1 X1.9503 Y-0.8381
G1 X1.9625 Y-0.8309
G1 X1.9762 Y-0.8213
G1 X1.9895 Y-0.8102
G1 X2.0039 Y-0.7962
G1 X2.0182 Y-0.7798
G1 X2.0323 Y-0.7607
G1 X2.0467 Y-0.7376
G1 X2.0596 Y-0.7126
G1 X2.0714 Y-0.6843
G1 X2.0817 Y-0.6529
G1 X2.0897 Y-0.6194
G1 X2.095 Y-0.5854
G1 X2.0975 Y-0.5521
G1 X2.0973 Y-0.5206
G1 X2.095 Y-0.4934
G1 X2.0911 Y-0.4706
G1 X2.0865 Y-0.452
G1 X2.081 Y-0.436
G1 X2.0785 Y-0.4302
G1 X2.0731 Y-0.4203
G1 X2.0658 Y-0.4117
G1 X2.057 Y-0.4046
G1 X2.047 Y-0.3993
G1 X2.0362 Y-0.3961
G1 X2.025 Y-0.395
G1 X1.9371
G3 X1.9131 Y-0.4172 I0.0009 J-0.025
G1 X1.8667 Y-0.8272
G3 X1.8907 Y-0.855 I0.0248 J-0.0028
G1 X1.9747
G1 X1.9866 Y-0.8544
G1 X1.9952 Y-0.8533
G1 X2.0046 Y-0.8513
G1 X2.0151 Y-0.8481
G1 X2.0259 Y-0.8439
G1 X2.0383 Y-0.8379
G1 X2.0505 Y-0.8307
G1 X2.0641 Y-0.8211
G1 X2.0775 Y-0.81
G1 X2.0918 Y-0.796
G1 X2.1061 Y-0.7797
G1 X2.1202 Y-0.7606
G1 X2.1346 Y-0.7375
G1 X2.1475 Y-0.7125
G1 X2.1593 Y-0.6843
G1 X2.1696 Y-0.6529
G1 X2.1776 Y-0.6194
G1 X2.1829 Y-0.5854
G1 X2.1854 Y-0.5521
G1 X2.1852 Y-0.5206
G1 X2.1829 Y-0.4934
G1 X2.179 Y-0.4706
G1 X2.1744 Y-0.452
G1 X2.1689 Y-0.436
G1 X2.1664 Y-0.4302
G1 X2.161 Y-0.4203
G1 X2.1537 Y-0.4117
G1 X2.1449 Y-0.4046
G1 X2.1349 Y-0.3993
G1 X2.1241 Y-0.3961
G1 X2.1129 Y-0.395
G1 X2.025
G3 X2.001 Y-0.4169 I0.0009 J-0.025
G1 X1.9508 Y-0.827
G3 X1.9747 Y-0.855 I0.0248 J-0.003
G1 X2.0671
G1 X2.0742 Y-0.8546
G1 X2.0829 Y-0.8535
G1 X2.0923 Y-0.8515
G1 X2.1028 Y-0.8483
G1 X2.1137 Y-0.8441
G1 X2.126 Y-0.8381
G1 X2.1382 Y-0.8309
G1 X2.1519 Y-0.8213
G1 X2.1653 Y-0.8102
G1 X2.1797 Y-0.7962
G1 X2.194 Y-0.7798
G1 X2.2081 Y-0.7607
G1 X2.2225 Y-0.7376
G1 X2.2354 Y-0.7125
G1 X2.2472 Y-0.6843
G1 X2.2575 Y-0.6529
G1 X2.2655 Y-0.6194
G1 X2.2708 Y-0.5854
G1 X2.2733 Y-0.5521
G1 X2.2731 Y-0.5206
G1 X2.2708 Y-0.4934
G1 X2.2669 Y-0.4706
G1 X2.2623 Y-0.452
G1 X2.2568 Y-0.436
G1 X2.2543 Y-0.4302
G1 X2.2489 Y-0.4203
G1 X2.2416 Y-0.4117
G1 X2.2328 Y-0.4046
G1 X2.2228 Y-0.3993
G1 X2.212 Y-0.3961
G1 X2.2008 Y-0.395
G1 X2.1129
G3 X2.0889 Y-0.4172 I0.0009 J-0.025
G1 X2.0432 Y-0.8272
G3 X2.0671 Y-0.855 I0.0248 J-0.0028
G1 X2.1512
G1 X2.1623 Y-0.8544
G1 X2.1709 Y-0.8533
G1 X2.1803 Y-0.8513
G1 X2.1909 Y-0.8481
G1 X2.2017 Y-0.8439
G1 X2.214 Y-0.8379
G1 X2.2262 Y-0.8308
G1 X2.2399 Y-0.8212
G1 X2.2533 Y-0.8101
G1 X2.2676 Y-0.7961
G1 X2.2819 Y-0.7797
G1 X2.296 Y-0.7606
G1 X2.3104 Y-0.7375
G1 X2.3233 Y-0.7125
G1 X2.3351 Y-0.6843
G1 X2.3454 Y-0.6529
G1 X2.3534 Y-0.6194
G1 X2.3587 Y-0.5854
G1 X2.3612 Y-0.5521
G1 X2.361 Y-0.5206
G1 X2.3587 Y-0.4934
G1 X2.3548 Y-0.4706
G1 X2.3502 Y-0.452
G1 X2.3447 Y-0.436
G1 X2.3422 Y-0.4302
G1 X2.3368 Y-0.4203
G1 X2.3295 Y-0.4117
G1 X2.3207 Y-0.4046
G1 X2.3107 Y-0.3993
G1 X2.2999 Y-0.3961
G1 X2.2887 Y-0.395
G1 X2.2008
G3 X2.1768 Y-0.417 I0.0009 J-0.025
G1 X2.1272 Y-0.827
G3 X2.1512 Y-0.855 I0.0248 J-0.003
G1 X2.2436
G1 X2.2499 Y-0.8547
G1 X2.2586 Y-0.8535
G1 X2.268 Y-0.8515
G1 X2.2786 Y-0.8484
G1 X2.2894 Y-0.8441
G1 X2.3018 Y-0.8381
G1 X2.314 Y-0.831
G1 X2.3277 Y-0.8213
G1 X2.3411 Y-0.8102
G1 X2.3555 Y-0.7962
G1 X2.3697 Y-0.7798
G1 X2.3839 Y-0.7608
G1 X2.3983 Y-0.7376
G1 X2.4112 Y-0.7126
G1 X2.423 Y-0.6843
G1 X2.4333 Y-0.6529
G1 X2.4413 Y-0.6194
G1 X2.4466 Y-0.5854
G1 X2.4491 Y-0.5521
G1 X2.4489 Y-0.5206
G1 X2.4466 Y-0.4934
G1 X2.4427 Y-0.4706
G1 X2.4381 Y-0.452
G1 X2.4326 Y-0.436
G1 X2.4301 Y-0.4302
G1 X2.4247 Y-0.4203
G1 X2.4174 Y-0.4117
G1 X2.4086 Y-0.4046
G1 X2.3986 Y-0.3993
G1 X2.3878 Y-0.3961
G1 X2.3766 Y-0.395
G1 X2.2887
G3 X2.2647 Y-0.4173 I0.0009 J-0.025
G1 X2.2196 Y-0.8273
G3 X2.2436 Y-0.855 I0.0249 J-0.0027
G1 X2.3276
G1 X2.3381 Y-0.8545
G1 X2.3467 Y-0.8533
G1 X2.3561 Y-0.8513
G1 X2.3666 Y-0.8482
G1 X2.3775 Y-0.844
G1 X2.3898 Y-0.838
G1 X2.402 Y-0.8308
G1 X2.4157 Y-0.8212
G1 X2.429 Y-0.8101
G1 X2.4434 Y-0.7961
G1 X2.4577 Y-0.7797
G1 X2.4718 Y-0.7607
G1 X2.4862 Y-0.7375
G1 X2.4991 Y-0.7125
G1 X2.5109 Y-0.6843
G1 X2.5212 Y-0.6529
G1 X2.5292 Y-0.6194
G1 X2.5345 Y-0.5854
G1 X2.537 Y-0.5521
G1 X2.5368 Y-0.5206
G1 X2.5345 Y-0.4934
G1 X2.5306 Y-0.4706
G1 X2.5259 Y-0.452
G1 X2.5205 Y-0.436
G1 X2.518 Y-0.4302
G1 X2.5126 Y-0.4203
G1 X2.5053 Y-0.4117
G1 X2.4965 Y-0.4046
G1 X2.4865 Y-0.3993
G1 X2.4757 Y-0.3961
G1 X2.4645 Y-0.395
G1 X2.3766
G3 X2.3526 Y-0.417 I0.0009 J-0.025
G1 X2.3037 Y-0.8271
G3 X2.3276 Y-0.855 I0.0248 J-0.003
G1 X2.42
G1 X2.4257 Y-0.8547
G1 X2.4344 Y-0.8536
G1 X2.4438 Y-0.8516
G1 X2.4544 Y-0.8484
G1 X2.4652 Y-0.8442
G1 X2.4776 Y-0.8382
G1 X2.4898 Y-0.831
G1 X2.5035 Y-0.8214
G1 X2.5169 Y-0.8103
G1 X2.5312 Y-0.7962
G1 X2.5455 Y-0.7799
G1 X2.5596 Y-0.7608
G1 X2.5741 Y-0.7376
G1 X2.587 Y-0.7126
G1 X2.5988 Y-0.6843
G1 X2.609 Y-0.6529
G1 X2.6171 Y-0.6194
G1 X2.6224 Y-0.5854
G1 X2.6249 Y-0.5521
G1 X2.6247 Y-0.5206
G1 X2.6224 Y-0.4934
G1 X2.6185 Y-0.4706
G1 X2.6138 Y-0.452
G1 X2.6084 Y-0.436
G1 X2.6059 Y-0.4302
G1 X2.6005 Y-0.4203
G1 X2.5932 Y-0.4117
G1 X2.5844 Y-0.4046
G1 X2.5744 Y-0.3993
G1 X2.5636 Y-0.3961
G1 X2.5524 Y-0.395
G1 X2.4645
G3 X2.4405 Y-0.4173 I0.0009 J-0.025
G1 X2.396 Y-0.8273
G3 X2.42 Y-0.855 I0.0249 J-0.0027
G1 X2.504
G1 X2.5139 Y-0.8545
G1 X2.5225 Y-0.8534
G1 X2.5319 Y-0.8514
G1 X2.5424 Y-0.8482
G1 X2.5533 Y-0.844
G1 X2.5656 Y-0.838
G1 X2.5778 Y-0.8308
G1 X2.5915 Y-0.8212
G1 X2.6048 Y-0.8101
G1 X2.6192 Y-0.7961
G1 X2.6335 Y-0.7798
G1 X2.6476 Y-0.7607
G1 X2.662 Y-0.7376
G1 X2.6749 Y-0.7125
G1 X2.6867 Y-0.6843
G1 X2.6969 Y-0.6529
G1 X2.705 Y-0.6194
G1 X2.7103 Y-0.5854
G1 X2.7128 Y-0.5521
G1 X2.7126 Y-0.5206
G1 X2.7103 Y-0.4934
G1 X2.7064 Y-0.4706
G1 X2.7017 Y-0.452
G1 X2.6963 Y-0.436
G1 X2.6938 Y-0.4302
G1 X2.6884 Y-0.4203
G1 X2.6811 Y-0.4117
G1 X2.6723 Y-0.4046
G1 X2.6623 Y-0.3993
G1 X2.6515 Y-0.3961
G1 X2.6403 Y-0.395
G1 X2.5524
G3 X2.5284 Y-0.4171 I0.0009 J-0.025
G1 X2.4801 Y-0.8271
G3 X2.504 Y-0.855 I0.0248 J-0.0029
G1 X2.5965
G1 X2.6019 Y-0.8547
G1 X2.6105 Y-0.8536
G1 X2.62 Y-0.8515
G1 X2.6306 Y-0.8483
G1 X2.6415 Y-0.844
G1 X2.6539 Y-0.838
G1 X2.6661 Y-0.8307
G1 X2.6798 Y-0.821
G1 X2.6932 Y-0.8098
G1 X2.7076 Y-0.7957
G1 X2.722 Y-0.7791
G1 X2.736 Y-0.76
G1 X2.7504 Y-0.7367
G1 X2.7633 Y-0.7114
G1 X2.775 Y-0.6831
G1 X2.7852 Y-0.6516
G1 X2.7931 Y-0.6181
G1 X2.7983 Y-0.584
G1 X2.8007 Y-0.5508
G1 X2.8004 Y-0.5192
G1 X2.798 Y-0.4925
G1 X2.7941 Y-0.4698
G1 X2.7894 Y-0.4513
G1 X2.784 Y-0.4354
G1 X2.7816 Y-0.43
G1 X2.7762 Y-0.4202
G1 X2.7689 Y-0.4116
G1 X2.7601 Y-0.4045
G1 X2.7502 Y-0.3993
G1 X2.7394 Y-0.3961
G1 X2.7282 Y-0.395
G1 X2.6403
G3 X2.6163 Y-0.4173 I0.0009 J-0.025
G1 X2.5725 Y-0.8274
G3 X2.5965 Y-0.855 I0.0249 J-0.0027
G1 X2.6805
G1 X2.695 Y-0.8542
G1 X2.7057 Y-0.8528
G1 X2.7162 Y-0.8503
G1 X2.7265 Y-0.847
G1 X2.7414 Y-0.8406
G1 X2.7555 Y-0.8328
G1 X2.769 Y-0.8237
G1 X2.7817 Y-0.8136
G1 X2.7936 Y-0.8027
G1 X2.8047 Y-0.7909
G1 X2.8152 Y-0.7785
G1 X2.8249 Y-0.7656
G1 X2.8367 Y-0.7475
G1 X2.8474 Y-0.7287
G1 X2.8569 Y-0.7093
G1 X2.8652 Y-0.6894
G1 X2.8725 Y-0.6691
G1 X2.8786 Y-0.6484
G1 X2.8849 Y-0.6221
G1 X2.8894 Y-0.5955
G1 X2.8919 Y-0.574
G1 X2.8932 Y-0.5525
G1 X2.8934 Y-0.5309
G1 X2.8924 Y-0.5093
G1 X2.8901 Y-0.4878
G1 X2.8863 Y-0.4666
G1 X2.8823 Y-0.4509
G1 X2.8772 Y-0.4355
G1 X2.8759 Y-0.4322
G1 X2.8706 Y-0.4218
G1 X2.8634 Y-0.4127
G1 X2.8545 Y-0.4052
G1 X2.8442 Y-0.3996
G1 X2.8331 Y-0.3962
G1 X2.8215 Y-0.395
G1 X2.7282
G3 X2.7042 Y-0.4171 I0.0009 J-0.025
G1 X2.6565 Y-0.8271
G3 X2.6805 Y-0.855 I0.0248 J-0.0029
G1 X2.7729
G1 X2.7826 Y-0.8545
G1 X2.7912 Y-0.8534
G1 X2.8007 Y-0.8514
G1 X2.811 Y-0.8483
G1 X2.8221 Y-0.8439
G1 X2.834 Y-0.8382
G1 X2.8466 Y-0.8308
G1 X2.8598 Y-0.8215
G1 X2.8735 Y-0.8101
G1 X2.8912 Y-0.7923
G1 X2.9056 Y-0.7752
G1 X2.9109 Y-0.7676
G3 X2.8761 Y-0.7332 I-0.0211 J0.0135
G1 X2.7601 Y-0.8091
G3 X2.7729 Y-0.855 I0.0137 J-0.0209
G1 X2.8616
G1 X2.8636
G1 X2.8653
G1 X2.8707 Y-0.8547
G1 X2.8799 Y-0.8534
G1 X2.8891 Y-0.8536
G1 X2.8985 Y-0.8549
G1 X2.902 Y-0.855
G3 X2.9011 Y-0.805 I-0.0009 J0.025
G1 X2.8662
G3 X2.8653 Y-0.855 I0. J-0.025
G1 X2.996 Y-0.8551
G1 X2.9992 Y-0.8548
G1 X3.0024 Y-0.854
G1 X3.0055 Y-0.8529
G1 X3.0091 Y-0.8513 Z-0.7084
G1 X3.0125 Y-0.8497 Z-0.7074
G1 X3.0158 Y-0.8482 Z-0.7059
G1 X3.0189 Y-0.8468 Z-0.7039
G1 X3.0216 Y-0.8456 Z-0.7013
G1 X3.0239 Y-0.8446 Z-0.6984
G1 X3.0258 Y-0.8437 Z-0.695
G1 X3.0272 Y-0.8431 Z-0.6914
G1 X3.028 Y-0.8427 Z-0.6876
G1 X3.0283 Y-0.8426 Z-0.6837
G0 Z0.2
G0 X3.1564 Y-0.3317
G0 Z-0.6587
G1 Z-0.6837 F40.
G1 X3.1561 Y-0.3316 Z-0.6876
G1 X3.1552 Y-0.3312 Z-0.6914
G1 X3.1539 Y-0.3307 Z-0.695
G1 X3.152 Y-0.3299 Z-0.6984
G1 X3.1496 Y-0.3289 Z-0.7013
G1 X3.1468 Y-0.3278 Z-0.7039
G1 X3.1438 Y-0.3265 Z-0.7059
G1 X3.1404 Y-0.3251 Z-0.7074
G1 X3.1369 Y-0.3237 Z-0.7084
G1 X3.1333 Y-0.3222 Z-0.7087
G1 X3.1312 Y-0.3217
G1 X3.1291
G1 X3.1271 Y-0.3223
G1 X3.1253 Y-0.3234
G1 X3.1238 Y-0.325
G1 X3.1161 Y-0.3363
G1 X3.109 Y-0.3452
G1 X3.1006 Y-0.3543
G1 X3.0922 Y-0.3617
G1 X3.0811 Y-0.3699
G1 X3.0754 Y-0.3738
G1 X3.067 Y-0.3785
G1 X3.0586 Y-0.3825
G1 X3.048 Y-0.3867
G1 X3.0418 Y-0.3888
G1 X3.0334 Y-0.3909
G1 X3.025 Y-0.3925
G1 X3.0082 Y-0.3945
G1 X2.9998 Y-0.3949
G1 X2.8215 Y-0.395
G1 X2.8183 Y-0.3953
G1 X2.8151 Y-0.3961
G1 X2.812 Y-0.3972
G1 X2.8085 Y-0.3989 Z-0.7084
G1 X2.805 Y-0.4004 Z-0.7074
G1 X2.8017 Y-0.4019 Z-0.7059
G1 X2.7987 Y-0.4033 Z-0.7039
G1 X2.7959 Y-0.4046 Z-0.7013
G1 X2.7936 Y-0.4056 Z-0.6984
G1 X2.7918 Y-0.4065 Z-0.695
G1 X2.7904 Y-0.4071 Z-0.6914
G1 X2.7896 Y-0.4075 Z-0.6876
G1 X2.7893 Y-0.4076 Z-0.6837
G0 Z0.2
G0 X3.1567 Y-3.0054
G0 Z-0.6587
G1 Z-0.6837 F40.
G1 X3.1564 Y-3.0053 Z-0.6876
G1 X3.1555 Y-3.005 Z-0.6914
G1 X3.1541 Y-3.0044 Z-0.695
G1 X3.1522 Y-3.0037 Z-0.6984
G1 X3.1498 Y-3.0028 Z-0.7013
G1 X3.147 Y-3.0018 Z-0.7039
G1 X3.1439 Y-3.0006 Z-0.7059
G1 X3.1405 Y-2.9993 Z-0.7074
G1 X3.1369 Y-2.998 Z-0.7084
G1 X3.1332 Y-2.9967 Z-0.7087
G1 X3.1312 Y-2.9962
G1 X3.1291 Y-2.9963
G1 X3.1271 Y-2.997
G1 X3.1253 Y-2.9982
G1 X3.1239 Y-2.9998
G1 X3.1139 Y-3.0166
G1 X3.1077 Y-3.025
G1 X3.1006 Y-3.0338
G1 X3.0922 Y-3.0425
G1 X3.0754 Y-3.0559
G1 X3.0558 Y-3.067
G1 X3.0502 Y-3.0692
G1 X3.0279 Y-3.0762
G1 X3.0082 Y-3.0787
G1 X2.9998 Y-3.0792
G1 X0.004
G1 X0.0019 Y-3.0797 Z-0.7084
G1 X-0.0001 Y-3.0801 Z-0.7077
G1 X-0.0019 Y-3.0805 Z-0.7065
G1 X-0.0034 Y-3.0808 Z-0.705
G1 X-0.0046 Y-3.0811 Z-0.7031
G1 X-0.0053 Y-3.0813 Z-0.701
G1 X-0.0055 Y-3.0814 Z-0.6988
G0 Z0.2
G0 X3.157 Y-2.9119
G0 Z-0.6193
G1 Z-0.6443 F40.
G1 X3.1568 Y-2.9118 Z-0.6482
G1 X3.1559 Y-2.9115 Z-0.652
G1 X3.1545 Y-2.911 Z-0.6556
G1 X3.1525 Y-2.9104 Z-0.659
G1 X3.1501 Y-2.9096 Z-0.662
G1 X3.1473 Y-2.9086 Z-0.6645
G1 X3.1441 Y-2.9075 Z-0.6666
G1 X3.1407 Y-2.9064 Z-0.6681
G1 X3.1371 Y-2.9052 Z-0.669
G1 X3.1333 Y-2.9039 Z-0.6693
G1 X3.1313 Y-2.9035
G1 X3.1292 Y-2.9037
G1 X3.1272 Y-2.9044
G1 X3.1255 Y-2.9057
G1 X3.1241 Y-2.9073
G1 X3.1174 Y-2.9194
G1 X3.1144 Y-2.9241
G1 X3.1084 Y-2.9326
G1 X3.1006 Y-2.9421
G1 X3.0838 Y-2.9578
G1 X3.0754 Y-2.964
G1 X3.0502 Y-2.9775
G1 X3.0334 Y-2.9831
G1 X3.025 Y-2.9847
G1 X3.0082 Y-2.9869
G1 X2.9998 Y-2.9874
G1 X0.004
G1 X0.0019 Y-2.9878 Z-0.669
G1 X-0.0001 Y-2.9883 Z-0.6683
G1 X-0.0019 Y-2.9886 Z-0.6671
G1 X-0.0034 Y-2.989 Z-0.6656
G1 X-0.0046 Y-2.9892 Z-0.6637
G1 X-0.0053 Y-2.9895 Z-0.6617
G1 X-0.0055 Y-2.9896 Z-0.6595
G0 Z0.2
G0 X3.1573 Y-2.8188
G0 Z-0.5799
G1 Z-0.6049 F40.
G1 X3.157 Y-2.8187 Z-0.6088
G1 X3.1562 Y-2.8184 Z-0.6126
G1 X3.1547 Y-2.8179 Z-0.6163
G1 X3.1528 Y-2.8173 Z-0.6196
G1 X3.1504 Y-2.8166 Z-0.6226
G1 X3.1475 Y-2.8157 Z-0.6251
G1 X3.1443 Y-2.8147 Z-0.6272
G1 X3.1409 Y-2.8136 Z-0.6287
G1 X3.1372 Y-2.8125 Z-0.6296
G1 X3.1335 Y-2.8113 Z-0.6299
G1 X3.1314 Y-2.811
G1 X3.1293 Y-2.8112
G1 X3.1273 Y-2.812
G1 X3.1256 Y-2.8132
G1 X3.1243 Y-2.8149
G1 X3.12 Y-2.8233
G1 X3.109 Y-2.8388
G1 X3.0999 Y-2.8511
G1 X3.0922 Y-2.8585
G1 X3.0838 Y-2.8658
G1 X3.0754 Y-2.8722
G1 X3.0519 Y-2.8849
G1 X3.0281 Y-2.8924
G1 X3.0082 Y-2.895
G1 X2.9998 Y-2.8955
G1 X0.004
G1 X0.0019 Y-2.896 Z-0.6297
G1 X-0.0001 Y-2.8964 Z-0.6289
G1 X-0.0019 Y-2.8968 Z-0.6278
G1 X-0.0034 Y-2.8971 Z-0.6262
G1 X-0.0046 Y-2.8973 Z-0.6244
G1 X-0.0053 Y-2.8976 Z-0.6223
G1 X-0.0055 Y-2.8977 Z-0.6201
G0 Z0.2
G0 X3.1568 Y-2.7285
G0 Z-0.5406
G1 Z-0.5656 F40.
G1 X3.1565 Y-2.7284 Z-0.5695
G1 X3.1557 Y-2.7282 Z-0.5733
G1 X3.1542 Y-2.7277 Z-0.5769
G1 X3.1523 Y-2.727 Z-0.5802
G1 X3.1499 Y-2.7262 Z-0.5832
G1 X3.1471 Y-2.7252 Z-0.5858
G1 X3.1439 Y-2.7242 Z-0.5878
G1 X3.1405 Y-2.723 Z-0.5893
G1 X3.1369 Y-2.7218 Z-0.5902
G1 X3.1332 Y-2.7205 Z-0.5906
G1 X3.1311 Y-2.7201
G1 X3.129 Y-2.7203
G1 X3.127 Y-2.721
G1 X3.1253 Y-2.7222
G1 X3.1239 Y-2.7239
G1 X3.1151 Y-2.7393
G1 X3.1006 Y-2.7581
G1 X3.0947 Y-2.7645
G1 X3.0754 Y-2.7803
G1 X3.0586 Y-2.79
G1 X3.0502 Y-2.7936
G1 X3.0281 Y-2.8006
G1 X3.0082 Y-2.8031
G1 X2.9998 Y-2.8036
G1 X0.004 Y-2.8037
G1 X0.0019 Y-2.8041 Z-0.5903
G1 X-0.0001 Y-2.8045 Z-0.5896
G1 X-0.0019 Y-2.8049 Z-0.5884
G1 X-0.0034 Y-2.8052 Z-0.5869
G1 X-0.0046 Y-2.8055 Z-0.585
G1 X-0.0053 Y-2.8058 Z-0.5829
G1 X-0.0055 Z-0.5807
G0 Z0.2
G0 X3.157 Y-2.6366
G0 Z-0.5012
G1 Z-0.5262 F40.
G1 X3.1567 Y-2.6365 Z-0.5301
G1 X3.1558 Y-2.6362 Z-0.5339
G1 X3.1544 Y-2.6357 Z-0.5375
G1 X3.1525 Y-2.635 Z-0.5409
G1 X3.1501 Y-2.6341 Z-0.5439
G1 X3.1473 Y-2.6331 Z-0.5464
G1 X3.1441 Y-2.632 Z-0.5485
G1 X3.1407 Y-2.6308 Z-0.55
G1 X3.1371 Y-2.6295 Z-0.5509
G1 X3.1334 Y-2.6282 Z-0.5512
G1 X3.1314 Y-2.6278
G1 X3.1292 Y-2.6279
G1 X3.1272 Y-2.6286
G1 X3.1255 Y-2.6298
G1 X3.1242 Y-2.6315
G1 X3.1149 Y-2.6469
G1 X3.109 Y-2.6563
G1 X3.1006 Y-2.6664
G1 X3.086 Y-2.6805
G1 X3.0745 Y-2.6889
G1 X3.0502 Y-2.702
G1 X3.0334 Y-2.7073
G1 X3.025 Y-2.7091
G1 X3.0082 Y-2.7113
G1 X2.9998 Y-2.7118
G1 X0.004
G1 X0.0019 Y-2.7122 Z-0.5509
G1 X-0.0001 Y-2.7127 Z-0.5502
G1 X-0.0019 Y-2.713 Z-0.549
G1 X-0.0034 Y-2.7134 Z-0.5475
G1 X-0.0046 Y-2.7136 Z-0.5456
G1 X-0.0053 Y-2.7139 Z-0.5436
G1 X-0.0055 Y-2.714 Z-0.5414
G0 Z0.2
G0 X3.1569 Y-2.5431
G0 Z-0.4618
G1 Z-0.4868 F40.
G1 X3.1566 Y-2.543 Z-0.4907
G1 X3.1557 Y-2.5428 Z-0.4945
G1 X3.1543 Y-2.5424 Z-0.4982
G1 X3.1523 Y-2.5418 Z-0.5015
G1 X3.1499 Y-2.5411 Z-0.5045
G1 X3.147 Y-2.5403 Z-0.507
G1 X3.1438 Y-2.5394 Z-0.5091
G1 X3.1403 Y-2.5384 Z-0.5106
G1 X3.1366 Y-2.5374 Z-0.5115
G1 X3.1328 Y-2.5363 Z-0.5118
G1 X3.1307 Y-2.536
G1 X3.1286 Y-2.5363
G1 X3.1267 Y-2.5372
G1 X3.1251 Y-2.5385
G1 X3.1238 Y-2.5402
G1 X3.121 Y-2.5461
G1 X3.1158 Y-2.5545
G1 X3.109 Y-2.5642
G1 X3.1006 Y-2.5747
G1 X3.0765 Y-2.5959
G1 X3.0512 Y-2.6096
G1 X3.0334 Y-2.6152
G1 X3.025 Y-2.6175
G1 X3.0166 Y-2.6188
G1 X3.0082 Y-2.6196
G1 X2.983 Y-2.62
G1 X0.004 Y-2.6199
G1 X0.0019 Y-2.6204 Z-0.5116
G1 X-0.0001 Y-2.6208 Z-0.5108
G1 X-0.0019 Y-2.6212 Z-0.5097
G1 X-0.0034 Y-2.6215 Z-0.5081
G1 X-0.0046 Y-2.6217 Z-0.5063
G1 X-0.0053 Y-2.622 Z-0.5042
G1 X-0.0055 Y-2.6221 Z-0.502
G0 Z0.2
G0 X3.1572 Y-2.4515
G0 Z-0.4224
G1 Z-0.4474 F40.
G1 X3.1569 Y-2.4514 Z-0.4514
G1 X3.156 Y-2.4511 Z-0.4552
G1 X3.1545 Y-2.4507 Z-0.4588
G1 X3.1526 Y-2.4501 Z-0.4621
G1 X3.1502 Y-2.4493 Z-0.4651
G1 X3.1473 Y-2.4484 Z-0.4677
G1 X3.1441 Y-2.4475 Z-0.4697
G1 X3.1406 Y-2.4464 Z-0.4712
G1 X3.137 Y-2.4453 Z-0.4721
G1 X3.1333 Y-2.4441 Z-0.4724
G1 X3.1312 Y-2.4438
G1 X3.1291 Y-2.444
G1 X3.1271 Y-2.4448
G1 X3.1254 Y-2.4461
G1 X3.1241 Y-2.4478
G1 X3.1163 Y-2.462
G1 X3.0981 Y-2.4855
G1 X3.0754 Y-2.5047
G1 X3.067 Y-2.5101
G1 X3.0502 Y-2.518
G1 X3.0281 Y-2.525
G1 X3.0082 Y-2.5275
G1 X2.9998 Y-2.528
G1 X0.004 Y-2.5281
G1 X0.0019 Y-2.5285 Z-0.4722
G1 X-0.0001 Y-2.5289 Z-0.4715
G1 X-0.0019 Y-2.5293 Z-0.4703
G1 X-0.0034 Y-2.5296 Z-0.4687
G1 X-0.0046 Y-2.5299 Z-0.4669
G1 X-0.0053 Y-2.5302 Z-0.4648
G1 X-0.0055 Y-2.5303 Z-0.4626
G0 Z0.2
G0 X3.1568 Y-2.3606
G0 Z-0.3831
G1 Z-0.4081 F40.
G1 X3.1566 Y-2.3605 Z-0.412
G1 X3.1557 Y-2.3603 Z-0.4158
G1 X3.1543 Y-2.3598 Z-0.4194
G1 X3.1523 Y-2.3591 Z-0.4228
G1 X3.1499 Y-2.3584 Z-0.4257
G1 X3.1471 Y-2.3574 Z-0.4283
G1 X3.1439 Y-2.3564 Z-0.4303
G1 X3.1404 Y-2.3553 Z-0.4318
G1 X3.1368 Y-2.3541 Z-0.4328
G1 X3.1331 Y-2.3529 Z-0.4331
G1 X3.131 Y-2.3525
G1 X3.1289 Y-2.3527
G1 X3.1269 Y-2.3534
G1 X3.1252 Y-2.3547
G1 X3.1239 Y-2.3563
G1 X3.1162 Y-2.3696
G1 X3.111 Y-2.378
G1 X3.1006 Y-2.3907
G1 X3.0922 Y-2.3993
G1 X3.0838 Y-2.4063
G1 X3.0754 Y-2.4128
G1 X3.0523 Y-2.4255
G1 X3.0281 Y-2.4331
G1 X3.0082 Y-2.4357
G1 X2.9998 Y-2.4362
G1 X0.004
G1 X0.0008 Y-2.4365
G1 X-0.0024 Y-2.4372
G1 X-0.0055 Y-2.4384
G1 X-0.0091 Y-2.44 Z-0.4328
G1 X-0.0125 Y-2.4416 Z-0.4318
G1 X-0.0158 Y-2.4431 Z-0.4303
G1 X-0.0189 Y-2.4444 Z-0.4283
G1 X-0.0216 Y-2.4457 Z-0.4257
G1 X-0.0239 Y-2.4467 Z-0.4228
G1 X-0.0258 Y-2.4475 Z-0.4194
G1 X-0.0272 Y-2.4482 Z-0.4158
G1 X-0.028 Y-2.4485 Z-0.412
G1 X-0.0283 Y-2.4487 Z-0.4081
G0 Z0.6
M5 M9
G30

N20(Scallop1)
M1
T8 G43 H8 M6
S5000 M3 M8
G0 X1.071 Y-2.0333
G0 Z0.6
G0 Z-0.2432
G1 Z-0.3112 F13.333
G1 Y-2.033 Z-0.314 F40.
G1 X1.0709 Y-2.0321 Z-0.3166
G1 Y-2.0307 Z-0.3189
G1 Y-2.0288 Z-0.3209
G1 Y-2.0265 Z-0.3224
G1 Y-2.0239 Z-0.3233
G1 X1.0708 Y-2.0212 Z-0.3237
G1 Y-2.0185 Z-0.3235
G1 Y-2.0159 Z-0.3227
G1 X1.0707 Y-2.0113 Z-0.3208
G1 X1.0708 Y-2.0057 Z-0.3184
G1 X1.0771
G1 X1.0773 Y-2.0059 Z-0.3185
G1 X1.0774 Y-2.0064 Z-0.3187
G1 X1.0771 Y-2.0073 Z-0.3191
G1 X1.0769 Y-2.0077 Z-0.3192
G1 X1.0755 Y-2.0093 Z-0.3199
G1 X1.0739 Y-2.0108 Z-0.3206
G1 X1.0709 Y-2.014 Z-0.3219
G1 X1.0705 Y-2.0147 Z-0.3222
G1 X1.0704 Y-2.0153 Z-0.3225
G1 X1.0706 Y-2.0158 Z-0.3227
G1 X1.0708 Y-2.0159
G1 X1.9293
G1 Y-2.0057 Z-0.3184
G1 X1.0771
G1 X1.0743 Z-0.3181
G1 X1.0717 Z-0.3171
G1 X1.0693 Z-0.3157
G1 X1.0673 Z-0.3137
G1 X1.0658 Z-0.3113
G1 X1.0649 Z-0.3087
G1 X1.0646 Z-0.3059
G0 Z0.2
G0 X1.9227 Y-2.0251
G0 Z-0.2397
G1 Z-0.3138 F13.333
G1 X1.923 Z-0.3163 F40.
G1 X1.9237 Y-2.025 Z-0.3187
G1 X1.9249 Z-0.3208
G1 X1.9265 Y-2.0248 Z-0.3228
G1 X1.9285 Y-2.0247 Z-0.3243
G1 X1.9307 Y-2.0245 Z-0.3254
G1 X1.9331 Y-2.0243 Z-0.3261
G1 X1.9356 Y-2.0241 Z-0.3263
G1 X1.9383 Y-2.0239 Z-0.3262
G1 Y-1.9981 Z-0.3151
G1 X1.9379 Y-1.9975 Z-0.3148
G1 X1.0631
G1 X1.0603 Z-0.3145
G1 X1.0577 Z-0.3136
G1 X1.0553 Z-0.3121
G1 X1.0533 Z-0.3101
G1 X1.0518 Z-0.3078
G1 X1.0509 Z-0.3051
G1 X1.0506 Z-0.3023
G0 Z0.2
G0 X1.9481 Y-2.0241
G0 Z-0.2392
G1 Z-0.3138 F13.333
G1 X1.9478 Z-0.3165 F40.
G1 X1.9468 Z-0.3192
G1 X1.9454 Z-0.3216
G1 X1.9434 Z-0.3235
G1 X1.941 Z-0.325
G1 X1.9384 Z-0.326
G1 X1.9356 Z-0.3263
G1 X1.0645
G1 X1.0617 Y-2.0239 Z-0.3262
G1 Y-1.9981 Z-0.3151
G1 X1.0621 Y-1.9975 Z-0.3148
G1 X1.0631
G1 X1.0637 Y-1.9976 Z-0.3149
G1 X1.0642 Y-1.998 Z-0.3151
G1 X1.0648 Y-1.9987 Z-0.3154
G1 X1.0651 Y-1.9996 Z-0.3158
G1 X1.0653 Y-2.0011 Z-0.3164
G1 X1.0652 Y-2.0027 Z-0.3171
G1 X1.0648 Y-2.0042 Z-0.3177
G1 X1.0636 Y-2.007 Z-0.3189
G1 X1.0623 Y-2.0097 Z-0.3201
G1 X1.0563 Y-2.0202 Z-0.3246
G1 X1.0537 Y-2.0259 Z-0.327
G1 X1.0534 Y-2.0272 Z-0.3276
G1 X1.0533 Y-2.0288 Z-0.3283
G1 X1.0535 Y-2.0303 Z-0.3289
G1 X1.0539 Y-2.0313 Z-0.3294
G1 X1.0545 Y-2.032 Z-0.3296
G1 X1.055 Y-2.0323 Z-0.3298
G1 X1.0554 Y-2.0324
G1 X1.9466
G1 X1.9473 Y-2.032 Z-0.3296
G1 Y-1.9897 Z-0.3115
G1 X1.9464 Y-1.9892 Z-0.3113
G1 X1.0536
G1 X1.0529 Y-1.9893 Z-0.3114
G1 X1.0523 Y-1.9896 Z-0.3115
G1 X1.0516 Y-1.9902 Z-0.3117
G1 X1.0509 Y-1.9912 Z-0.3121
G1 X1.0505 Y-1.9922 Z-0.3126
G1 X1.0501 Y-1.9935 Z-0.3132
G1 X1.05 Y-1.9955 Z-0.314
G1 Y-1.9968 Z-0.3146
G1 X1.0501 Y-1.9975 Z-0.3148
G1 X1.0509 Y-2.0009 Z-0.3163
G1 X1.052 Y-2.0042 Z-0.3177
G1 X1.0532 Y-2.0075 Z-0.3192
G1 X1.0559 Y-2.0141 Z-0.322
G1 X1.0571 Y-2.0174 Z-0.3234
G1 X1.0582 Y-2.0207 Z-0.3248
G1 X1.059 Y-2.0241 Z-0.3263
G1 X1.0591 Y-2.0254 Z-0.3268
G1 X1.059 Y-2.0274 Z-0.3277
G1 X1.0586 Y-2.0294 Z-0.3285
G1 X1.0581 Y-2.0304 Z-0.329
G1 X1.0574 Y-2.0314 Z-0.3294
G1 X1.0567 Y-2.032 Z-0.3297
G1 X1.0559 Y-2.0323 Z-0.3298
G1 X1.0554 Y-2.0324
G1 X1.0534
G1 X1.0527 Y-2.032 Z-0.3296
G1 Y-1.9897 Z-0.3115
G1 X1.0536 Y-1.9892 Z-0.3113
G1 X1.0543 Y-1.989 Z-0.3112
G1 X1.0552
G1 X1.0561 Y-1.9894 Z-0.3114
G1 X1.0573 Y-1.9901 Z-0.3117
G1 X1.0583 Y-1.9911 Z-0.3121
G1 X1.0592 Y-1.9925 Z-0.3127
G1 X1.06 Y-1.9939 Z-0.3133
G1 X1.0607 Y-1.9958 Z-0.3141
G1 X1.0609 Y-1.997 Z-0.3146
G1 X1.0615 Y-2.0015 Z-0.3166
G1 X1.0617 Y-2.006 Z-0.3185
G1 X1.0616 Y-2.0105 Z-0.3204
G1 X1.0611 Y-2.015 Z-0.3223
G1 X1.0603 Y-2.0197 Z-0.3244
G1 X1.0591 Y-2.0244 Z-0.3264
G1 X1.0576 Y-2.029 Z-0.3284
G1 X1.0557 Y-2.0335 Z-0.3303
G1 X1.0548 Y-2.0352 Z-0.331
G1 X1.0537 Y-2.0367 Z-0.3317
G1 X1.0524 Y-2.0381 Z-0.3323
G1 X1.0506 Y-2.0396 Z-0.3329
G1 X1.0491 Y-2.0405 Z-0.3333
G1 X1.0474 Y-2.041 Z-0.3335
G1 X1.0462 Y-2.0411
G1 X1.0452 Y-2.0409
G1 X1.0446 Y-2.0407 Z-0.3334
G1 X1.0437 Y-2.0401 Z-0.3331
G1 Y-1.9814 Z-0.308
G1 X1.0446 Y-1.9809 Z-0.3078
G1 X1.0452 Y-1.9808 Z-0.3077
G1 X1.0458 Y-1.981 Z-0.3078
G1 X1.0464 Y-1.9815 Z-0.308
G1 X1.0471 Y-1.9824 Z-0.3084
G1 X1.0476 Y-1.9834 Z-0.3088
G1 X1.0481 Y-1.9856 Z-0.3097
G1 X1.0482 Y-1.9863 Z-0.3101
G1 Y-1.9881 Z-0.3108
G1 X1.0481 Y-1.9892 Z-0.3113
G1 X1.0473 Y-1.9937 Z-0.3132
G1 X1.0461 Y-1.9982 Z-0.3152
G1 X1.0449 Y-2.0027 Z-0.3171
G1 X1.0419 Y-2.0123 Z-0.3212
G1 X1.0404 Y-2.0175 Z-0.3234
G1 X1.0391 Y-2.0227 Z-0.3257
G1 X1.0383 Y-2.028 Z-0.3279
G1 X1.0382 Y-2.03 Z-0.3288
G1 X1.0383 Y-2.0321 Z-0.3297
G1 X1.0387 Y-2.0341 Z-0.3306
G1 X1.0395 Y-2.0365 Z-0.3316
G1 X1.0405 Y-2.0381 Z-0.3323
G1 X1.0416 Y-2.0393 Z-0.3328
G1 X1.0425 Y-2.04 Z-0.3331
G1 X1.0433 Y-2.0404 Z-0.3333
G1 X1.0442 Y-2.0406 Z-0.3334
G1 X1.0446 Y-2.0407
G1 X1.9554
G1 X1.9563 Y-2.0401 Z-0.3331
G1 Y-1.9814 Z-0.308
G1 X1.9554 Y-1.9809 Z-0.3078
G1 X1.0446
G1 X1.043 Y-1.981
G1 X1.042 Y-1.9812 Z-0.3079
G1 X1.0402 Y-1.9818 Z-0.3081
G1 X1.0384 Y-1.9826 Z-0.3085
G1 X1.0372 Y-1.9832 Z-0.3088
G1 X1.0362 Y-1.984 Z-0.3091
G1 X1.0341 Y-1.9856 Z-0.3098
G1 X1.0332 Y-1.9866 Z-0.3102
G1 X1.0314 Y-1.9885 Z-0.311
G1 X1.0299 Y-1.9907 Z-0.3119
G1 X1.0286 Y-1.9929 Z-0.3129
G1 X1.0273 Y-1.9955 Z-0.314
G1 X1.0262 Y-1.9982 Z-0.3151
G1 X1.0244 Y-2.0036 Z-0.3175
G1 X1.0231 Y-2.0092 Z-0.3199
G1 X1.0222 Y-2.0149 Z-0.3223
G1 X1.0219 Y-2.0203 Z-0.3246
G1 Y-2.023 Z-0.3258
G1 X1.022 Y-2.0257 Z-0.327
G1 X1.0228 Y-2.0312 Z-0.3293
G1 X1.0234 Y-2.0338 Z-0.3304
G1 X1.0241 Y-2.0365 Z-0.3316
G1 X1.0249 Y-2.0387 Z-0.3325
G1 X1.026 Y-2.0408 Z-0.3334
G1 X1.0273 Y-2.0429 Z-0.3343
G1 X1.0288 Y-2.0448 Z-0.3351
G1 X1.0297 Y-2.0456 Z-0.3355
G1 X1.0305 Y-2.0464 Z-0.3358
G1 X1.032 Y-2.0474 Z-0.3362
G1 X1.0335 Y-2.0482 Z-0.3366
G1 X1.0352 Y-2.0487 Z-0.3368
G1 X1.0364 Y-2.0489 Z-0.3369
G1 X1.037
G1 X1.9647
G1 X1.9653 Y-2.0479 Z-0.3365
G1 Y-1.9734 Z-0.3045
G1 X1.9647 Y-1.9727 Z-0.3042
G1 X1.0352
G1 X1.0347 Y-1.9734 Z-0.3045
G1 X1.0332 Y-1.9763 Z-0.3058
G1 X1.0323 Y-1.9786 Z-0.3068
G1 X1.032 Y-1.98 Z-0.3074
G1 X1.0317 Y-1.9814 Z-0.308
G1 X1.0314 Y-1.9842 Z-0.3092
G1 X1.0313 Y-1.9871 Z-0.3104
G1 X1.0315 Y-1.99 Z-0.3117
G1 X1.0319 Y-1.9929 Z-0.3129
G1 X1.0325 Y-1.9957 Z-0.3141
G1 X1.0342 Y-2.0017 Z-0.3167
G1 X1.0363 Y-2.0076 Z-0.3192
G1 X1.0407 Y-2.0192 Z-0.3242
G1 X1.0422 Y-2.0237 Z-0.3261
G1 X1.0433 Y-2.0283 Z-0.3281
G1 X1.044 Y-2.0329 Z-0.3301
G1 X1.0441 Y-2.0353 Z-0.3311
G1 X1.0442 Y-2.0376 Z-0.3321
G1 X1.0441 Y-2.0395 Z-0.3329
G1 X1.0437 Y-2.0414 Z-0.3337
G1 X1.0432 Y-2.0432 Z-0.3344
G1 X1.0424 Y-2.0449 Z-0.3352
G1 X1.0417 Y-2.046 Z-0.3357
G1 X1.0405 Y-2.0473 Z-0.3362
G1 X1.0395 Y-2.0481 Z-0.3366
G1 X1.0383 Y-2.0487 Z-0.3368
G1 X1.0372 Y-2.0489 Z-0.3369
G1 X1.037
G1 X1.0353
G1 X1.0347 Y-2.0479 Z-0.3365
G1 Y-1.9734 Z-0.3045
G1 X1.0348
G1 X1.0353 Y-1.9738 Z-0.3047
G1 X1.0361 Y-1.9757 Z-0.3055
G1 X1.037 Y-1.9788 Z-0.3069
G1 X1.0377 Y-1.9822 Z-0.3083
G1 X1.0393 Y-1.9922 Z-0.3126
G1 X1.0402 Y-1.9989 Z-0.3155
G1 X1.0409 Y-2.0056 Z-0.3183
G1 X1.0414 Y-2.0131 Z-0.3216
G1 X1.0416 Y-2.0214 Z-0.3251
G1 X1.0417 Y-2.0255 Z-0.3268
G1 X1.0416 Y-2.0296 Z-0.3286
G1 X1.0414 Y-2.0337 Z-0.3304
G1 X1.041 Y-2.0378 Z-0.3321
G1 X1.0405 Y-2.0419 Z-0.3339
G1 X1.0398 Y-2.0448 Z-0.3351
G1 X1.0393 Y-2.0463 Z-0.3358
G1 X1.0387 Y-2.0477 Z-0.3364
G1 X1.0373 Y-2.0504 Z-0.3375
G1 X1.0365 Y-2.0517 Z-0.3381
G1 X1.0356 Y-2.053 Z-0.3386
G1 X1.0343 Y-2.0545 Z-0.3393
G1 X1.0327 Y-2.0558 Z-0.3398
G1 X1.0315 Y-2.0565 Z-0.3402
G1 X1.0304 Y-2.0571 Z-0.3404
G1 X1.0291 Y-2.0574 Z-0.3405
G1 X1.0278 Y-2.0575 Z-0.3406
G1 X1.0267 Y-2.0573 Z-0.3405
G1 X1.0266 Y-2.0572 Z-0.3404
G1 X1.0258 Y-2.0569 Z-0.3403
G1 Y-1.9648 Z-0.3009
G1 X1.0256 Y-1.9647 Z-0.3008
G1 X1.0252 Y-1.9648 Z-0.3009
G1 X1.0248 Y-1.9651 Z-0.301
G1 X1.0237 Y-1.9662 Z-0.3014
G1 X1.0217 Y-1.9698 Z-0.303
G1 X1.021 Y-1.9714 Z-0.3037
G1 X1.0203 Y-1.9731 Z-0.3044
G1 X1.0183 Y-1.9796 Z-0.3072
G1 X1.0164 Y-1.9862 Z-0.31
G1 X1.0148 Y-1.9928 Z-0.3128
G1 X1.0142 Y-1.9961 Z-0.3143
G1 X1.013 Y-2.004 Z-0.3176
G1 X1.0118 Y-2.013 Z-0.3215
G1 X1.0113 Y-2.0175 Z-0.3234
G1 X1.011 Y-2.0221 Z-0.3254
G1 X1.0108 Y-2.0266 Z-0.3273
G1 Y-2.0311 Z-0.3293
G1 X1.011 Y-2.0356 Z-0.3312
G1 X1.0115 Y-2.0393 Z-0.3328
G1 X1.0119 Y-2.0411 Z-0.3335
G1 X1.0124 Y-2.0429 Z-0.3343
G1 X1.0138 Y-2.0463 Z-0.3358
G1 X1.0146 Y-2.048 Z-0.3365
G1 X1.0155 Y-2.0497 Z-0.3372
G1 X1.017 Y-2.0518 Z-0.3381
G1 X1.0176 Y-2.0524 Z-0.3384
G1 X1.0188 Y-2.0537 Z-0.3389
G1 X1.0202 Y-2.0548 Z-0.3394
G1 X1.0216 Y-2.0558 Z-0.3398
G1 X1.0232 Y-2.0565 Z-0.3401
G1 X1.0249 Y-2.057 Z-0.3404
G1 X1.0262 Y-2.0572
G1 X1.0266
G1 X1.9735
G1 X1.9743 Y-2.0569 Z-0.3403
G1 Y-1.9648 Z-0.3009
G1 X1.9735 Y-1.9644 Z-0.3007
G1 X1.0266
G1 X1.0258 Y-1.9648 Z-0.3009
G1 X1.0222 Y-1.9671 Z-0.3018
G1 X1.0205 Y-1.9683 Z-0.3023
G1 X1.0189 Y-1.9696 Z-0.3029
G1 X1.0159 Y-1.9725 Z-0.3041
G1 X1.0132 Y-1.9755 Z-0.3054
G1 X1.0107 Y-1.9788 Z-0.3068
G1 X1.0085 Y-1.9822 Z-0.3083
G1 X1.0065 Y-1.9858 Z-0.3098
G1 X1.0047 Y-1.9894 Z-0.3114
G1 X1.0031 Y-1.9933 Z-0.3131
G1 X1.0017 Y-1.9972 Z-0.3147
G1 X1.0005 Y-2.0012 Z-0.3165
G1 X0.9994 Y-2.0052 Z-0.3182
G1 X0.9985 Y-2.0093 Z-0.3199
G1 X0.9978 Y-2.0134 Z-0.3217
G1 X0.9971 Y-2.0175 Z-0.3234
G1 X0.9966 Y-2.0216 Z-0.3252
G1 X0.9964 Y-2.0251 Z-0.3267
G1 X0.9963 Y-2.0287 Z-0.3282
G1 X0.9965 Y-2.0322 Z-0.3297
G1 X0.9968 Y-2.0358 Z-0.3313
G1 X0.9974 Y-2.0393 Z-0.3328
G1 X0.9982 Y-2.0427 Z-0.3343
G1 X0.9992 Y-2.0462 Z-0.3357
G1 X1.0004 Y-2.0495 Z-0.3372
G1 X1.0017 Y-2.0524 Z-0.3384
G1 X1.0033 Y-2.0552 Z-0.3396
G1 X1.0052 Y-2.0578 Z-0.3407
G1 X1.0062 Y-2.0591 Z-0.3412
G1 X1.0074 Y-2.0602 Z-0.3417
G1 X1.0085 Y-2.0613 Z-0.3422
G1 X1.0098 Y-2.0622 Z-0.3426
G1 X1.0111 Y-2.0631 Z-0.343
G1 X1.0132 Y-2.0642 Z-0.3435
G1 X1.0139 Y-2.0645 Z-0.3436
G1 X1.0158 Y-2.0651 Z-0.3438
G1 X1.0177 Y-2.0654 Z-0.344
G1 X1.0185 Y-2.0655
G1 X1.9824
G1 X1.9833 Y-2.065 Z-0.3438
G1 Y-1.9572 Z-0.2976
G1 X1.9827 Y-1.9561 Z-0.2971
G1 X1.0174
G1 X1.0167 Y-1.9572 Z-0.2976
G1 X1.0149 Y-1.9609 Z-0.2992
G1 X1.0141 Y-1.9628 Z-0.3
G1 X1.0135 Y-1.9648 Z-0.3008
G1 X1.0127 Y-1.9688 Z-0.3026
G1 X1.0124 Y-1.9708 Z-0.3034
G1 X1.0123 Y-1.9729 Z-0.3043
G1 X1.0122 Y-1.9771 Z-0.3061
G1 X1.0125 Y-1.9812 Z-0.3079
G1 X1.0131 Y-1.9854 Z-0.3097
G1 X1.0139 Y-1.9895 Z-0.3114
G1 X1.015 Y-1.9938 Z-0.3133
G1 X1.0163 Y-1.998 Z-0.3151
G1 X1.0177 Y-2.0022 Z-0.3169
G1 X1.0237 Y-2.0189 Z-0.324
G1 X1.0252 Y-2.0231 Z-0.3259
G1 X1.0262 Y-2.0264 Z-0.3272
G1 X1.0271 Y-2.0296 Z-0.3286
G1 X1.0285 Y-2.0361 Z-0.3314
G1 X1.0293 Y-2.0428 Z-0.3343
G1 X1.0294 Y-2.0461 Z-0.3357
G1 Y-2.0494 Z-0.3371
G1 X1.0291 Y-2.0521 Z-0.3383
G1 X1.0285 Y-2.0548 Z-0.3394
G1 X1.0276 Y-2.0573 Z-0.3405
G1 X1.0271 Y-2.0586 Z-0.341
G1 X1.0264 Y-2.0598 Z-0.3416
G1 X1.0254 Y-2.0614 Z-0.3422
G1 X1.0241 Y-2.0628 Z-0.3429
G1 X1.0226 Y-2.064 Z-0.3434
G1 X1.0216 Y-2.0647 Z-0.3437
G1 X1.0201 Y-2.0653 Z-0.3439
G1 X1.0188 Y-2.0655 Z-0.344
G1 X1.0185
G1 X1.0176
G1 X1.0168 Y-2.065 Z-0.3438
G1 X1.0167 Y-1.9572 Z-0.2976
G1 X1.0169 Y-1.9571 Z-0.2975
G1 X1.0174 Y-1.9572 Z-0.2976
G1 X1.0178 Y-1.9576 Z-0.2977
G1 X1.0189 Y-1.959 Z-0.2984
G1 X1.0192 Y-1.9595 Z-0.2986
G1 X1.0211 Y-1.9636 Z-0.3003
G1 X1.0219 Y-1.9656 Z-0.3012
G1 X1.0225 Y-1.9677 Z-0.3021
G1 X1.0247 Y-1.9759 Z-0.3056
G1 X1.0267 Y-1.9842 Z-0.3092
G1 X1.0276 Y-1.9883 Z-0.3109
G1 X1.0284 Y-1.9925 Z-0.3127
G1 X1.0291 Y-1.9967 Z-0.3145
G1 X1.0296 Y-2.0009 Z-0.3163
G1 X1.0309 Y-2.0123 Z-0.3212
G1 X1.0314 Y-2.018 Z-0.3236
G1 X1.0318 Y-2.0237 Z-0.3261
G1 X1.0321 Y-2.0295 Z-0.3286
G1 Y-2.0352 Z-0.331
G1 X1.0319 Y-2.0409 Z-0.3335
G1 X1.0315 Y-2.0466 Z-0.3359
G1 X1.0307 Y-2.0512 Z-0.3379
G1 X1.0301 Y-2.0535 Z-0.3389
G1 X1.0294 Y-2.0558 Z-0.3398
G1 X1.0276 Y-2.0601 Z-0.3417
G1 X1.0265 Y-2.0623 Z-0.3426
G1 X1.0252 Y-2.0643 Z-0.3435
G1 X1.0239 Y-2.0661 Z-0.3443
G1 X1.0225 Y-2.0678 Z-0.345
G1 X1.0209 Y-2.0694 Z-0.3457
G1 X1.0191 Y-2.0708 Z-0.3463
G1 X1.0172 Y-2.0719 Z-0.3468
G1 X1.0152 Y-2.0729 Z-0.3472
G1 X1.0142 Y-2.0732 Z-0.3473
G1 X1.0125 Y-2.0736 Z-0.3475
G1 X1.0109 Y-2.0737
G1 X1.0085
G1 X1.0078 Y-2.0732 Z-0.3473
G1 Y-1.9482 Z-0.2937
G1 X1.014 Y-1.9478 Z-0.2936
G1 X1.0152 Y-1.9479
G1 X1.0164 Y-1.9483 Z-0.2938
G1 X1.0175 Y-1.9488 Z-0.294
G1 X1.0185 Y-1.9495 Z-0.2943
G1 X1.0197 Y-1.9505 Z-0.2947
G1 X1.0208 Y-1.9518 Z-0.2953
G1 X1.0217 Y-1.9532 Z-0.2959
G1 X1.0225 Y-1.9547 Z-0.2965
G1 X1.0231 Y-1.9562 Z-0.2972
G1 X1.0237 Y-1.958 Z-0.2979
G1 X1.0242 Y-1.9599 Z-0.2987
G1 X1.0247 Y-1.9636 Z-0.3003
G1 X1.0248 Y-1.9655 Z-0.3011
G1 Y-1.9674 Z-0.3019
G1 X1.0247 Y-1.9693 Z-0.3028
G1 X1.0244 Y-1.9711 Z-0.3036
G1 X1.0234 Y-1.9761 Z-0.3057
G1 X1.0223 Y-1.981 Z-0.3078
G1 X1.0209 Y-1.9859 Z-0.3099
G1 X1.0194 Y-1.9908 Z-0.312
G1 X1.0177 Y-1.9956 Z-0.314
G1 X1.0142 Y-2.0052 Z-0.3181
G1 X1.0087 Y-2.0196 Z-0.3243
G1 X1.0069 Y-2.0245 Z-0.3264
G1 X1.0052 Y-2.0294 Z-0.3285
G1 X1.0037 Y-2.0343 Z-0.3306
G1 X1.0023 Y-2.0393 Z-0.3328
G1 X1.0011 Y-2.0443 Z-0.3349
G1 X1.0001 Y-2.0494 Z-0.3371
G1 X0.9996 Y-2.0532 Z-0.3387
G1 Y-2.0552 Z-0.3396
G1 X0.9997 Y-2.0571 Z-0.3404
G1 X1.0003 Y-2.061 Z-0.3421
G1 X1.0007 Y-2.0629 Z-0.3429
G1 X1.0013 Y-2.0648 Z-0.3437
G1 X1.002 Y-2.0664 Z-0.3444
G1 X1.0028 Y-2.068 Z-0.3451
G1 X1.0037 Y-2.0694 Z-0.3457
G1 X1.0049 Y-2.0708 Z-0.3463
G1 X1.0061 Y-2.0719 Z-0.3467
G1 X1.0076 Y-2.0728 Z-0.3472
G1 X1.0084 Y-2.0732 Z-0.3473
G1 X1.0096 Y-2.0736 Z-0.3475
G1 X1.0109 Y-2.0737
G1 X1.9916
G1 X1.9923 Y-2.0732 Z-0.3473
G1 Y-1.9482 Z-0.2937
G1 X1.9861 Y-1.9478 Z-0.2936
G1 X1.014
G1 X1.0107 Y-1.9481 Z-0.2937
G1 X1.0089 Y-1.9485 Z-0.2938
G1 X1.0064 Y-1.9492 Z-0.2941
G1 X1.004 Y-1.9501 Z-0.2945
G1 X1.0017 Y-1.9512 Z-0.295
G1 X0.9994 Y-1.9525 Z-0.2956
G1 X0.9973 Y-1.954 Z-0.2962
G1 X0.9953 Y-1.9555 Z-0.2969
G1 X0.9934 Y-1.9573 Z-0.2976
